!!!!SEGMENT: pl-cz--iii-860--001-002_volckmer-augustin--litaniae-lauretanae-f-sancta-maria.krn
!!!cenid: 17xx:1138
!!!COM: Volckmer, Augustin
!!!COM-rismID: pe30020656
!!!CDT: 1755-~1820
!!!CNT:
!!!OPR: Litaniae Lauretanae F
!!!OTL: Sancta Maria
!!!OMV: 002
!!!PDT:
!!!AGN: Sacred; Mass
!!!YEC: Copyright 2022 Narodowy Instytut Fryderyka Chopina (https://polishscores.org)
!!!YEM: License CC-BY-4.0 (https://creativecommons.org/licenses/by/4.0)
!!!SMS-siglum: PL-CZ
!!!SMS-shelfmark: III-860
!!!SMS-variant:
!!!SMS-altvar:
!!!SMS-shelfwork: 001-002 M
!!!NIFC-rismSourceID: 300001390
!!!NIFC-rismChildID: 300001390
!!!NIFC-islandoraID: pl-cz:41326
!!!URL-pdf-islandora: https://repozytorium.nifc.pl/islandora/object/pl-cz%3A41326/datastream/PDF/view
!!!URL-scan: https://polish.musicsources.pl/pl/lokalizacje/galeria/rekopisy/7018/1 @EN{Scan on Polish Music Sources Website} @PL{Skany w portalu Dziedzictwo Muzyki Polskiej w otwartym dostępie}
!!!IIIF:
!!!ONB-nifc: UWAGA: części Litanii: Kyrie, Sancta Maria, Virgo prudentissima, Salus infirmorum, Regina angelorum, Agnus Dei
!!!AIN: 1 alto 1 bass 1 cor 4 empty 1 organ 1 tenor 2 violn 1 vox
!!!key:
**kern	**dynam	**kern	**dynam	**kern	**dynam	**kern	**dynam	**kern	**kern	**kern	**text	**text	**kern	**text	**text	**kern	**kern	**kern	**dynam	**kern	**dynam
*part12	*	*part11	*	*part10	*	*part9	*	*part8	*part7	*part6	*	*	*part5	*	*	*part4	*part3	*part2	*	*part1	*
*staff12	*	*staff11	*	*staff10	*	*staff9	*	*staff8	*staff7	*staff6	*	*	*staff5	*	*	*staff4	*staff3	*staff2	*	*staff1	*
*Iorgan	*	*Iempty	*	*Ivioln	*	*Ivioln	*	*Ibass	*Itenor	*Ialto	*	*	*Ivox	*	*	*Iempty	*Icor	*Iempty	*	*Iempty	*
*I"Organo.	*	*I"Viola obg}	*	*I"Violino Secundo.	*	*I"Violino Primo.	*	*I"Basso.	*I"Tenore.	*I"Alto	*	*	*I"Canto.	*	*	*I"Corno Secundo.	*I"Corno Primo	*I"Flauto (II)	*	*I"Flauto (I)	*
*I'Org.	*	*I'V-la	*	*I'V-no II	*	*I'V-no I	*	*I'B.	*I'T.	*I'A.	*	*	*I'C.	*	*	*I'C. II	*I'C. I	*I'Fl. (II)	*	*I'Fl. (I)	*
*clefF4	*	*clefC3	*	*clefG2	*	*clefG2	*	*clefF4	*clefC4	*clefC3	*	*	*clefC1	*	*	*clefG2	*clefG2	*clefG2	*	*clefG2	*
*	*	*	*	*	*	*	*	*	*	*	*	*	*	*	*	*ITrd4c7	*ITrd4c7	*	*	*	*
*k[]	*	*k[]	*	*k[]	*	*k[]	*	*k[]	*k[]	*k[]	*	*	*k[]	*	*	*k[]	*k[]	*k[]	*	*k[]	*
*C:	*	*C:	*	*C:	*	*C:	*	*C:	*C:	*C:	*	*	*C:	*	*	*C:	*C:	*C:	*	*C:	*
*M2/4	*	*M2/4	*	*M2/4	*	*M2/4	*	*M2/4	*M2/4	*M2/4	*	*	*M2/4	*	*	*M2/4	*M2/4	*M2/4	*	*M2/4	*
!	!	!	!	!	!	!LO:TX:t=P:problem:dynamika i artykulacja na czerwono	!	!	!	!	!	!	!	!	!	!	!	!	!	!	!
!	!	!	!	!	!	!LO:TX:t=P:problem:all\right:global	!	!	!	!	!	!	!	!	!	!	!	!	!	!	!
!	!	!LO:TX:t=P:problem:dynamika i artykulacja na czerwono	!	!LO:TX:t=P:problem:dynamika i artykulacja na czerwono	!	!LO:TX:a:t=Dolce	!	!	!	!	!	!	!LO:TX:t=P:problem:pion	!	!	!	!	!LO:TX:t=P:problem:dynamika i artykulacja na czerwono	!	!LO:TX:t=P:problem:dynamika i artykulacja na czerwono	!
!LO:TX:a:t=Andante	!	!LO:TX:a:t=Andante	!	!LO:TX:a:t=andante.	!	!LO:TX:a:t=Andante.	!	!LO:TX:a:t=Sancta Maria Tacet # Canto et Alto 2/4 | andante	!LO:TX:a:t=Sancta Maria Tacet 2/4 Andante #	!LO:TX:a:t=Andante	!	!	!LO:TX:a:t=Andante	!	!	!LO:TX:a:t=Sancta Maria Tacet	!LO:TX:a:t=Sancta Maria Tacet	!LO:TX:a:t=Andante	!	!LO:TX:a:t=Andante	!
8r	.	8r	.	8g/	.	8g/	.	8ryy	8ryy	8r	.	.	8ryy	.	.	8ryy	8ryy	8r	.	8r	.
=1	=1	=1	=1	=1	=1	=1	=1	=1	=1	=1	=1	=1	=1	=1	=1	=1	=1	=1	=1	=1	=1
!	!	!	!	!LO:TX:a:t=Dolce	!	!	!	!	!	!LO:TX:b:t=17	!	!	!LO:TX:a:t=13	!	!	!	!	!LO:TX:a:t=3	!	!LO:TX:a:t=3	!
8r	.	8r	.	8e/	.	(16g\LL	.	2ryy	2ryy	2r	.	.	2r	.	.	2ryy	2ryy	2r	.	2r	.
.	.	.	.	.	.	16cc\JJ)	.	.	.	.	.	.	.	.	.	.	.	.	.	.	.
8C/L	.	8g\L	.	4e/	.	4cc\	.	.	.	.	.	.	.	.	.	.	.	.	.	.	.
8E/	.	8g\	.	.	.	.	.	.	.	.	.	.	.	.	.	.	.	.	.	.	.
8C/J	.	8g\J	.	16b\LL	.	(16dd\LL	.	.	.	.	.	.	.	.	.	.	.	.	.	.	.
.	.	.	.	16cc\JJ	.	16ee\JJ)	.	.	.	.	.	.	.	.	.	.	.	.	.	.	.
=2	=2	=2	=2	=2	=2	=2	=2	=2	=2	=2	=2	=2	=2	=2	=2	=2	=2	=2	=2	=2	=2
8r	.	8r	.	16cc\LL	.	(16ee\LL	.	2ryy	2ryy	2r	.	.	2r	.	.	2ryy	2ryy	2r	.	2r	.
.	.	.	.	(16dd\	.	16ff\	.	.	.	.	.	.	.	.	.	.	.	.	.	.	.
8GG/L	.	8g\L	.	16b\)	.	16dd\	.	.	.	.	.	.	.	.	.	.	.	.	.	.	.
.	.	.	.	16a#X\JJ	.	16cc#X\JJ)	.	.	.	.	.	.	.	.	.	.	.	.	.	.	.
8BB/	.	8g\	.	8b\L	.	8dd\L	.	.	.	.	.	.	.	.	.	.	.	.	.	.	.
8GG/J	.	8g\J	.	8g\J	.	(16g\L	.	.	.	.	.	.	.	.	.	.	.	.	.	.	.
.	.	.	.	.	.	16b\JJ)	.	.	.	.	.	.	.	.	.	.	.	.	.	.	.
=3	=3	=3	=3	=3	=3	=3	=3	=3	=3	=3	=3	=3	=3	=3	=3	=3	=3	=3	=3	=3	=3
8r	.	8r	.	8b\	.	8dd\	.	2ryy	2ryy	2r	.	.	2r	.	.	2ryy	2ryy	2r	.	2r	.
8GG/L	.	8g\L	.	4b\	.	4dd\	.	.	.	.	.	.	.	.	.	.	.	.	.	.	.
8BB/	.	8g\	.	.	.	.	.	.	.	.	.	.	.	.	.	.	.	.	.	.	.
8GG/J	.	8g\J	.	(16cc\LL	.	(16ee\LL	.	.	.	.	.	.	.	.	.	.	.	.	.	.	.
.	.	.	.	16dd\JJ)	.	16ff\JJ)	.	.	.	.	.	.	.	.	.	.	.	.	.	.	.
=4	=4	=4	=4	=4	=4	=4	=4	=4	=4	=4	=4	=4	=4	=4	=4	=4	=4	=4	=4	=4	=4
8r	.	8r	.	16dd\LL	.	(16ff\LL	.	2ryy	2ryy	2r	.	.	2r	.	.	2ryy	2ryy	4r	.	4r	.
.	.	.	.	(16ee\	.	16gg\	.	.	.	.	.	.	.	.	.	.	.	.	.	.	.
8C/L	.	8g\L	.	16cc\)	.	16ee\)	.	.	.	.	.	.	.	.	.	.	.	.	.	.	.
.	.	.	.	16b\JJ	.	16dd#X\JJ	.	.	.	.	.	.	.	.	.	.	.	.	.	.	.
!	!	!	!	!LO:TX:t=P:problem:mixed beam	!	!	!	!	!	!	!	!	!	!	!	!	!	!	!	!	!
8CC/J	.	8g\J	.	8cc/L	.	8ee\L	.	.	.	.	.	.	.	.	.	.	.	8r	.	8r	.
8r	.	8r	.	16e'/L	.	16ccn'\L	.	.	.	.	.	.	.	.	.	.	.	16ee'\LL	.	16ccc'\LL	.
.	.	.	.	16e'/JJ	.	16cc'\JJ	.	.	.	.	.	.	.	.	.	.	.	16ee'\JJ	.	16ccc'\JJ	.
=5	=5	=5	=5	=5	=5	=5	=5	=5	=5	=5	=5	=5	=5	=5	=5	=5	=5	=5	=5	=5	=5
8r	.	8r	.	(16f/LL	.	(16dd\LL	.	2ryy	2ryy	2r	.	.	2r	.	.	2ryy	2ryy	(16ff\LL	.	(16ddd\LL	.
.	.	.	.	16e/J)	.	16cc\J)	.	.	.	.	.	.	.	.	.	.	.	16ee\J)	.	16ccc\J)	.
8C/L	.	8G/ 8e	.	8e/J	.	8cc'\J	.	.	.	.	.	.	.	.	.	.	.	8ee\J|>	.	8ccc\J	.
8CC/J	.	4G/ 4e	.	16r	.	16r	.	.	.	.	.	.	.	.	.	.	.	16r	.	16r	.
.	.	.	.	16cc'\LL	.	16ee'\LL	.	.	.	.	.	.	.	.	.	.	.	16ccc\LL	.	16eee'\LL	.
8r	.	.	.	16cc'\	.	16ee'\	.	.	.	.	.	.	.	.	.	.	.	16ccc\	.	16eee'\	.
.	.	.	.	16cc'\JJ	.	16ee'\JJ	.	.	.	.	.	.	.	.	.	.	.	16ccc\JJ	.	16eee'\JJ	.
=6	=6	=6	=6	=6	=6	=6	=6	=6	=6	=6	=6	=6	=6	=6	=6	=6	=6	=6	=6	=6	=6
8r	.	8r	.	(16dd\LL	.	(16ee\LL	.	2ryy	2ryy	2r	.	.	2r	.	.	2ryy	2ryy	(16ddd\LL	.	(16fff\LL	.
.	.	.	.	16cc\J)	.	16dd\J)	.	.	.	.	.	.	.	.	.	.	.	16ccc\J)	.	16eee\J)	.
8C/L	.	8G/ 8e	.	8cc'\J	.	8dd'\J	.	.	.	.	.	.	.	.	.	.	.	8ccc\J	.	8eee\J	.
8CC/J	.	4G/ 4e	.	16r	.	16r	.	.	.	.	.	.	.	.	.	.	.	16r	.	16r	.
.	.	.	.	16ee'\LL	.	16gg'\LL	.	.	.	.	.	.	.	.	.	.	.	16eee\LL	.	16ggg\LL	.
8r	.	.	.	16ee'\	.	16gg'\	.	.	.	.	.	.	.	.	.	.	.	16eee\	.	16ggg\	.
.	.	.	.	16ee'\JJ	.	16gg'\JJ	.	.	.	.	.	.	.	.	.	.	.	16eee\JJ	.	16ggg\JJ	.
=7	=7	=7	=7	=7	=7	=7	=7	=7	=7	=7	=7	=7	=7	=7	=7	=7	=7	=7	=7	=7	=7
8r	.	8r	.	(16ee\LL	.	16gg\LL	.	2ryy	2ryy	2r	.	.	2r	.	.	2ryy	2ryy	16eee\LL	.	16ggg\LL	.
.	.	.	.	16cc\JJ)	.	16ee\JJ	.	.	.	.	.	.	.	.	.	.	.	16ccc\JJ	.	16eee\JJ	.
!LO:TX:t=P:problem:mixed beam	!	!	!	!	!	!	!	!	!	!	!	!	!	!	!	!	!	!	!	!	!
8C/L	.	8g\L	.	4e/	.	4cc\	.	.	.	.	.	.	.	.	.	.	.	4ee\	.	4ccc\	.
8G/	.	8g\	.	.	.	.	.	.	.	.	.	.	.	.	.	.	.	.	.	.	.
8GG/J	.	8f\J	.	8d/	.	8b\	.	.	.	.	.	.	.	.	.	.	.	8dd\	.	8bb\	.
=8	=8	=8	=8	=8	=8	=8	=8	=8	=8	=8	=8	=8	=8	=8	=8	=8	=8	=8	=8	=8	=8
8C/L	.	4g\	.	(16e/LL	.	16cc\LL	.	2ryy	2ryy	2r	.	.	2r	.	.	2ryy	2ryy	16ee\LL	.	16ccc\LL	.
.	.	.	.	16d/	.	16b\	.	.	.	.	.	.	.	.	.	.	.	16dd\	.	16bb\	.
8CC/	.	.	.	16e/	.	16cc\	.	.	.	.	.	.	.	.	.	.	.	16ee\	.	16ccc\	.
.	.	.	.	16f/JJ)	.	16b\JJ	.	.	.	.	.	.	.	.	.	.	.	16ff\JJ	.	16bb\JJ	.
8C/J	.	8g\	.	8e/L	p	8cc\L	.	.	.	.	.	.	.	.	.	.	.	8ee\	.	8ccc\	.
8r	.	8r	.	16e'/L	.	16cc'\L	p	.	.	.	.	.	.	.	.	.	.	8r	.	8r	.
.	.	.	.	16e'/JJ	.	16cc'\JJ	.	.	.	.	.	.	.	.	.	.	.	.	.	.	.
=9	=9	=9	=9	=9	=9	=9	=9	=9	=9	=9	=9	=9	=9	=9	=9	=9	=9	=9	=9	=9	=9
8r	.	8r	.	(16f/LL	.	(16dd\LL	.	2ryy	2ryy	2r	.	.	2r	.	.	2ryy	2ryy	8r	.	8r	.
.	.	.	.	16e/J)	.	16cc\J)	.	.	.	.	.	.	.	.	.	.	.	.	.	.	.
!	!LO:DY:a	!	!	!	!	!	!	!	!	!	!	!	!	!	!	!	!	!	!	!	!
8C/L	p	8G/ 8e	p	8e'/J	.	8cc'\J	.	.	.	.	.	.	.	.	.	.	.	8ee\	.	8ccc\	.
8CC/J	.	4G/ 4e	.	16r	.	16r	.	.	.	.	.	.	.	.	.	.	.	4ee\	.	4ccc\	.
.	.	.	.	16cc'\LL	.	16ee'\LL	.	.	.	.	.	.	.	.	.	.	.	.	.	.	.
8r	.	.	.	16cc'\	.	16ee'\	.	.	.	.	.	.	.	.	.	.	.	.	.	.	.
.	.	.	.	16cc'\JJ	.	16ee'\JJ	.	.	.	.	.	.	.	.	.	.	.	.	.	.	.
=10	=10	=10	=10	=10	=10	=10	=10	=10	=10	=10	=10	=10	=10	=10	=10	=10	=10	=10	=10	=10	=10
8r	.	8r	.	(16dd\LL	.	(16ff\LL	.	2ryy	2ryy	2r	.	.	2r	.	.	2ryy	2ryy	8r	.	8r	.
.	.	.	.	16cc\J)	.	16ee\J)	.	.	.	.	.	.	.	.	.	.	.	.	.	.	.
8C/L	.	8G/ 8e	.	8cc'\J	.	8ee'\J	.	.	.	.	.	.	.	.	.	.	.	8ccc\	.	8eee\	.
8CC/J	.	8G/L 8e	.	16r	.	16r	.	.	.	.	.	.	.	.	.	.	.	4ccc\	.	4eee\	.
.	.	.	.	16ee'\LL	.	16gg'\LL	.	.	.	.	.	.	.	.	.	.	.	.	.	.	.
8r	.	16g/L	.	16ee'\	.	16gg'\	.	.	.	.	.	.	.	.	.	.	.	.	.	.	.
.	.	16g/JJ	.	16ee'\JJ	.	16gg'\JJ	.	.	.	.	.	.	.	.	.	.	.	.	.	.	.
=11	=11	=11	=11	=11	=11	=11	=11	=11	=11	=11	=11	=11	=11	=11	=11	=11	=11	=11	=11	=11	=11
!	!	!LO:TX:a:t=dolce	!	!	!	!	!	!	!	!	!	!	!	!	!	!	!	!LO:TX:a:t=1	!	!LO:TX:a:t=1	!
8C/	.	16g\LL	.	(16ee\LL	.	16gg\LL	.	2ryy	2ryy	2r	.	.	2r	.	.	2ryy	2ryy	2r	.	2r	.
.	.	16e\	.	16cc\)	.	16ee\	.	.	.	.	.	.	.	.	.	.	.	.	.	.	.
8r	.	16cc\	.	(16aa\	.	(16ccc\	.	.	.	.	.	.	.	.	.	.	.	.	.	.	.
.	.	16b\JJ	.	16gg\JJ)	.	16bb\JJ)	.	.	.	.	.	.	.	.	.	.	.	.	.	.	.
8r	.	16a\LL	.	(16ff\LL	.	16aa\LL	.	.	.	.	.	.	.	.	.	.	.	.	.	.	.
.	.	16g\	.	16ee\	.	(16gg\	.	.	.	.	.	.	.	.	.	.	.	.	.	.	.
!	!LO:DY:a	!	!	!	!	!	!	!	!	!	!	!	!	!	!	!	!	!	!	!	!
8E\	f f	16f\	.	16dd\	.	16ff\)	.	.	.	.	.	.	.	.	.	.	.	.	.	.	.
.	.	16e\JJ	.	16cc#X\JJ)	.	16ee\JJ	.	.	.	.	.	.	.	.	.	.	.	.	.	.	.
=12	=12	=12	=12	=12	=12	=12	=12	=12	=12	=12	=12	=12	=12	=12	=12	=12	=12	=12	=12	=12	=12
!LO:TX:t=P:problem:mixed beam	!	!	!	!	!	!LO:TX:t=P:problem:klamra łukowa	!	!	!	!	!	!	!	!	!	!	!	!	!	!	!
8F/L	.	8a\L	f	8f/	f	24dd\LL	f	2ryy	2ryy	2r	.	.	2r	.	.	2ryy	2ryy	8ff\L	.	8ddd\	.
.	.	.	.	.	.	24cc#X\	.	.	.	.	.	.	.	.	.	.	.	.	.	.	.
.	.	.	.	.	.	24dd\JJ	.	.	.	.	.	.	.	.	.	.	.	.	.	.	.
!	!	!	!	!LO:TX:t=P:problem:klamra łukowa	!	!LO:TX:t=P:problem:klamra łukowa	!	!	!	!	!	!	!	!	!	!	!	!LO:TX:t=P:problem:klamra łukowa	!	!LO:TX:t=P:problem:klamra łukowa	!
8D/	.	8f\	.	24a/LL	.	24ff\LL	.	.	.	.	.	.	.	.	.	.	.	24aa\L	.	24fff\LL	.
.	.	.	.	24g/	.	24ee\	.	.	.	.	.	.	.	.	.	.	.	24gg\	.	24eee\	.
.	.	.	.	24f/JJ	.	24dd\JJ	.	.	.	.	.	.	.	.	.	.	.	24ff\JJ	.	24ddd\JJ	.
8G/	.	8g\	.	8e/L	.	8ccn\L	.	.	.	.	.	.	.	.	.	.	.	8ee\L	.	8ccc\L	.
8GG/J	.	8g\J	.	8d/J	.	8b\J	.	.	.	.	.	.	.	.	.	.	.	8dd\J	.	8bb\J	.
=13	=13	=13	=13	=13	=13	=13	=13	=13	=13	=13	=13	=13	=13	=13	=13	=13	=13	=13	=13	=13	=13
8C/|<	.	8g\	.	(16e/LL	p	(16cc\LL	p	2ryy	2ryy	2r	.	.	2r	.	.	2ryy	2ryy	(16ee\LL	p	(16ccc\LL	p
.	.	.	.	16g/)	.	16ee\)	.	.	.	.	.	.	.	.	.	.	.	16gg\)	.	16eee\)	.
8r	.	8r	.	(16f/	.	(16dd\	.	.	.	.	.	.	.	.	.	.	.	(16ff\	.	(16ddd\	.
.	.	.	.	16g/JJ)	.	16ee\JJ)	.	.	.	.	.	.	.	.	.	.	.	16gg\JJ)	.	16eee\JJ)	.
8C/|<	.	4r	.	16e/LL	.	(16cc\LL	.	.	.	.	.	.	.	.	.	.	.	(16ee\LL	.	(16ccc\LL	.
.	.	.	.	16g/	.	16ee\)	.	.	.	.	.	.	.	.	.	.	.	16gg\)	.	16eee\)	.
8r	.	.	.	16f/	.	(16dd\	.	.	.	.	.	.	.	.	.	.	.	(16ff\	.	(16ddd\	.
.	.	.	.	16g/JJ	.	16ee\JJ)	.	.	.	.	.	.	.	.	.	.	.	16gg\JJ)	.	16eee\JJ)	.
=14	=14	=14	=14	=14	=14	=14	=14	=14	=14	=14	=14	=14	=14	=14	=14	=14	=14	=14	=14	=14	=14
!	!	!	!	!LO:TX:t=P:problem:mixed beam	!	!	!	!	!	!	!	!	!LO:TX:a:t=Dolce	!	!	!	!	!	!	!	!
8r	.	8r	f	8e/L	f	8cc\L	f	2ryy	2ryy	2r	.	.	4r	.	.	2ryy	2ryy	8ee\L	f	8ccc\L	f
8C/L	.	8g\L	.	8ee/	.	8ccc\	.	.	.	.	.	.	.	.	.	.	.	8ee\	.	8ccc\	.
8CC/J	.	8g\J	.	8ee/J	.	8ccc\J	.	.	.	.	.	.	8r	.	.	.	.	8ee\J	.	8ccc\J	.
8r	.	8r	.	8r	.	8g/	.	.	.	.	.	.	(8g\	San-	Je-	.	.	8r	.	8r	.
=15	=15	=15	=15	=15	=15	=15	=15	=15	=15	=15	=15	=15	=15	=15	=15	=15	=15	=15	=15	=15	=15
!	!	!LO:TX:a:t=Dolce	!	!	!	!	!	!	!	!	!	!	!	!	!	!	!	!	!	!	!
!	!	!LO:TX:b:t=vox	!	!LO:TX:b:t=vox	!	!LO:TX:b:t=vox	!	!	!	!	!	!	!	!	!	!	!	!LO:TX:a:t=7	!	!LO:TX:a:t=7	!
8r	.	8r	p	8e/	p	(16g/LL	p	2ryy	2ryy	2r	.	.	16g\LL	.	.	2ryy	2ryy	2r	.	2r	.
.	.	.	.	.	.	16cc/JJ)	.	.	.	.	.	.	16cc\JJ)	.	.	.	.	.	.	.	.
!LO:TX:b:t=vox	!	!	!	!	!	!	!	!	!	!	!	!	!	!	!	!	!	!	!	!	!
8C/L	p	8g\L	.	4e/	.	4cc\	.	.	.	.	.	.	4cc\	-cta	-su	.	.	.	.	.	.
8E/	.	8g\	.	.	.	.	.	.	.	.	.	.	.	.	.	.	.	.	.	.	.
8C/J	.	8g\J	.	(16b\LL	.	(16dd\LL	.	.	.	.	.	.	16dd\LL	Ma-	.	.	.	.	.	.	.
.	.	.	.	16cc\JJ)	.	16ee\JJ)	.	.	.	.	.	.	16ee\JJ	.	.	.	.	.	.	.	.
=16	=16	=16	=16	=16	=16	=16	=16	=16	=16	=16	=16	=16	=16	=16	=16	=16	=16	=16	=16	=16	=16
8r	.	8r	.	(16cc\LL	.	16ee\LL	.	2ryy	2ryy	2r	.	.	16ee\LL	-ri-	fi-	2ryy	2ryy	2r	.	2r	.
.	.	.	.	16dd\	.	(16ff\	.	.	.	.	.	.	16ff\	.	.	.	.	.	.	.	.
8GG/L	.	8g\L	.	16b\	.	16dd\)	.	.	.	.	.	.	16dd\	.	.	.	.	.	.	.	.
.	.	.	.	16a#X\JJ)	.	16cc#X\JJ	.	.	.	.	.	.	16cc#X\JJ	.	.	.	.	.	.	.	.
8BB/	.	8g\	.	8b\L	.	8dd\L	.	.	.	.	.	.	8dd\	-a	-li	.	.	.	.	.	.
8GG/J	.	8g\J	.	8g\J	.	(16g\L	.	.	.	.	.	.	16g\LL	San-	Fi-	.	.	.	.	.	.
.	.	.	.	.	.	16b\JJ)	.	.	.	.	.	.	16b\JJ	.	.	.	.	.	.	.	.
=17	=17	=17	=17	=17	=17	=17	=17	=17	=17	=17	=17	=17	=17	=17	=17	=17	=17	=17	=17	=17	=17
8r	.	8r	.	8b\	.	8dd\	.	2ryy	2ryy	2r	.	.	8dd\	-cta	-li	2ryy	2ryy	2r	.	2r	.
8GG/L	.	8g\L	.	4b\	.	4dd\	.	.	.	.	.	.	4dd,\	.	.	.	.	.	.	.	.
8BB/	.	8g\	.	.	.	.	.	.	.	.	.	.	.	.	.	.	.	.	.	.	.
8GG/J	.	8g\J	.	(16cc\LL	.	(16ee\LL	.	.	.	.	.	.	16ee\	De-	De-	.	.	.	.	.	.
.	.	.	.	16dd\JJ)	.	16ff\JJ)	.	.	.	.	.	.	16ff\	-i	-i	.	.	.	.	.	.
=18	=18	=18	=18	=18	=18	=18	=18	=18	=18	=18	=18	=18	=18	=18	=18	=18	=18	=18	=18	=18	=18
8r	.	8r	.	(16dd\LL	.	(16ff\LL	.	2ryy	2ryy	4r	.	.	16ff\LL	ge-	vi-	2ryy	2ryy	2r	.	2r	.
.	.	.	.	16ee\	.	16gg\	.	.	.	.	.	.	16gg\JJ	.	.	.	.	.	.	.	.
8C/L	.	8g\L	.	16cc\	.	16ee\)	.	.	.	.	.	.	16ee\LL	-ni-	.	.	.	.	.	.	.
.	.	.	.	16b\JJ)	.	16dd#X\JJ	.	.	.	.	.	.	16dd#X\JJ	.	.	.	.	.	.	.	.
!	!	!	!	!LO:TX:t=P:problem:mixed beam	!	!	!	!	!	!	!	!	!	!	!	!	!	!	!	!	!
8CC/J	.	8g\J	.	8cc/L	.	8ee\L	.	.	.	8r	.	.	8ee\	-trix	-vi	.	.	.	.	.	.
8r	.	8r	.	16e'/L	.	16cc'\L	.	.	.	8e\L	o-	vi-	8cc\L	o-	mi-	.	.	.	.	.	.
.	.	.	.	16e'/JJ	.	16cc'\JJ	.	.	.	.	.	.	.	.	.	.	.	.	.	.	.
=19	=19	=19	=19	=19	=19	=19	=19	=19	=19	=19	=19	=19	=19	=19	=19	=19	=19	=19	=19	=19	=19
8r	.	8r	.	(16f/LL	.	(16dd\LL	.	2ryy	2ryy	16f\L	.	.	16dd\L	.	.	2ryy	2ryy	2r	.	2r	.
.	.	.	.	16e/J)	.	16cc\J)	.	.	.	16e\JJ	.	.	16cc\JJ	.	.	.	.	.	.	.	.
8C/L	.	8G/ 8e	.	8e/J	.	8cc'\J	.	.	.	8e\	-ra	-vi	8cc\	-ra	-se-	.	.	.	.	.	.
8CC/	.	4G/ 4e	.	16r	.	16r	.	.	.	8r	.	.	8r	.	.	.	.	.	.	.	.
.	.	.	.	16cc'\LL	.	16ee'\LL	.	.	.	.	.	.	.	.	.	.	.	.	.	.	.
8C/J	.	.	.	16cc'\	.	16ee'\	.	.	.	8cc\L	/o-	mi-	8ee\L	o-	-re-	.	.	.	.	.	.
.	.	.	.	16cc'\JJ	.	16ee'\JJ	.	.	.	.	.	.	.	.	.	.	.	.	.	.	.
=20	=20	=20	=20	=20	=20	=20	=20	=20	=20	=20	=20	=20	=20	=20	=20	=20	=20	=20	=20	=20	=20
8r	.	8r	.	(16dd\LL	.	(16ff\LL	.	2ryy	2ryy	16dd\L	.	.	16ff\L	.	.	2ryy	2ryy	2r	.	2r	.
.	.	.	.	16cc\J)	.	16ee\J)	.	.	.	16cc\JJ	.	.	16ee\JJ	.	.	.	.	.	.	.	.
8C/L	.	8G/ 8e	.	8cc'\J	.	8ee'\J	.	.	.	8cc\	-ra/	-se-	8ee\	-ra	-re	.	.	.	.	.	.
8CC/	.	4G/ 4e	.	16r	.	16r	.	.	.	8r	.	.	8r	.	.	.	.	.	.	.	.
.	.	.	.	16ee'\LL	.	16gg'\LL	.	.	.	.	.	.	.	.	.	.	.	.	.	.	.
8C/J	.	.	.	16ee'\	.	16gg'\	.	.	.	8ee\	o-	.	(8gg\	o-	no-	.	.	.	.	.	.
.	.	.	.	16ee'\JJ	.	16gg'\JJ	.	.	.	.	.	.	.	.	.	.	.	.	.	.	.
=21	=21	=21	=21	=21	=21	=21	=21	=21	=21	=21	=21	=21	=21	=21	=21	=21	=21	=21	=21	=21	=21
8r	.	8r	.	16ee\LL	.	(16gg\LL	.	2ryy	2ryy	16ee\LL	.	.	16gg\LL)	.	.	2ryy	2ryy	2r	.	2r	.
.	.	.	.	16cc\JJ	.	16ee\JJ)	.	.	.	16cc\JJ	.	.	16ee\JJ	.	.	.	.	.	.	.	.
!LO:TX:t=P:problem:mixed beam	!	!	!	!	!	!	!	!	!	!	!	!	!	!	!	!	!	!	!	!	!
8C/L	.	4g\	.	4e/	.	4cc\	.	.	.	4e\	-ra	-re-	4cc\	-ra	.	.	.	.	.	.	.
8G/	.	.	.	.	.	.	.	.	.	.	.	.	.	.	.	.	.	.	.	.	.
8GG/J	.	8f\	.	8d/	.	8b\	.	.	.	8d\	pro	-re	8b\	pro	-bis	.	.	.	.	.	.
=22	=22	=22	=22	=22	=22	=22	=22	=22	=22	=22	=22	=22	=22	=22	=22	=22	=22	=22	=22	=22	=22
8C/L	.	4g\	.	(16e/LL	.	(16cc\LL	.	2ryy	2ryy	16e\LL	no-	no-	16cc\LL	no-	no-	2ryy	2ryy	4r	.	4r	.
.	.	.	.	16d/	.	16b\)	.	.	.	16d\	.	.	16b\	.	.	.	.	.	.	.	.
8GG/	.	.	.	16e/	.	(16cc\	.	.	.	16e\	.	.	16cc\	.	.	.	.	.	.	.	.
.	.	.	.	16f/JJ)	.	16b\JJ)	.	.	.	16f\JJ	.	.	16b\JJ	.	.	.	.	.	.	.	.
8CC/J	.	8g\	.	8e/L	.	8cc\L	f	.	.	8e\	-bis	-bis	8cc\	-bis	-bis	.	.	8r	.	8r	.
8r	.	8r	.	16e'/L	.	16cc'\L	.	.	.	8r	.	.	8r	.	.	.	.	8ee\	.	16ccc'\LL	.
.	.	.	.	16e'/JJ	.	16cc'\JJ	.	.	.	.	.	.	.	.	.	.	.	.	.	16ccc'\JJ	.
=23	=23	=23	=23	=23	=23	=23	=23	=23	=23	=23	=23	=23	=23	=23	=23	=23	=23	=23	=23	=23	=23
!	!	!	!	!	!	!	!	!	!	!LO:TX:a:t=1	!	!	!LO:TX:a:t=1	!	!	!	!	!	!	!	!
8r	f	8r	f	(16f/LL	.	(16dd\LL	.	2ryy	2ryy	2r	.	.	2r	.	.	2ryy	2ryy	(16ff\LL	.	(16ddd\LL	.
.	.	.	.	16e/J)	.	16cc\J)	.	.	.	.	.	.	.	.	.	.	.	16ee\J)	.	16ccc\J)	.
8C/L	.	8G/ 8e	.	8e'/J	.	8cc'\J	.	.	.	.	.	.	.	.	.	.	.	8ee\J	.	8ccc\J|>	.
8CC/	.	8G/ 8e	.	16r	.	16r	.	.	.	.	.	.	.	.	.	.	.	8r	.	8r	.
.	.	.	.	16cc'\LL	.	16ee'\LL	.	.	.	.	.	.	.	.	.	.	.	.	.	.	.
8C/J	.	8r	.	16cc'\	.	16ee'\	.	.	.	.	.	.	.	.	.	.	.	8ccc\	.	8eee\	.
.	.	.	.	16cc'\JJ	.	16ee'\JJ	.	.	.	.	.	.	.	.	.	.	.	.	.	.	.
=24	=24	=24	=24	=24	=24	=24	=24	=24	=24	=24	=24	=24	=24	=24	=24	=24	=24	=24	=24	=24	=24
8r	.	8r	.	(16dd\LL	.	(16ff\LL	.	2ryy	2ryy	4r	.	.	4r	.	.	2ryy	2ryy	(16ddd\LL	.	(16fff\LL	.
.	.	.	.	16cc\J)	.	16ee\J)	.	.	.	.	.	.	.	.	.	.	.	16ccc\J)	.	16eee\J)	.
8C/L	.	8G/ 8e	.	8cc'\J	.	8ee'\J	.	.	.	.	.	.	.	.	.	.	.	8ccc\J	.	8eee\J	.
8CC/	.	4G/ 4e	.	16r	.	16r	.	.	.	8r	.	.	8r	.	.	.	.	8r	.	8r	.
.	.	.	.	16ee'\LL	.	16gg\LL	.	.	.	.	.	.	.	.	.	.	.	.	.	.	.
8C/J	.	.	.	16ee'\	.	16gg\	.	.	.	8ee\	o-	Je-	8gg\	o-	Je-	.	.	8eee\	.	8ggg\	.
.	.	.	.	16ee'\JJ	.	16gg\JJ	.	.	.	.	.	.	.	.	.	.	.	.	.	.	.
=25	=25	=25	=25	=25	=25	=25	=25	=25	=25	=25	=25	=25	=25	=25	=25	=25	=25	=25	=25	=25	=25
!LO:TX:t=P:problem:mixed beam	!	!	!	!	!	!	!	!	!	!	!	!	!	!	!	!	!	!	!	!	!
8E/L	.	8g\L	.	16ee\LL	.	16gg\LL	.	2ryy	2ryy	16ee\LL	-ra	.	16gg\LL	-ra	.	2ryy	2ryy	(16eee\LL	.	(16ggg\LL	.
.	.	.	.	16cc\	.	16ee\	.	.	.	16cc\JJ	.	.	16ee\JJ	.	.	.	.	16ccc\	.	16eee\)	.
8F/	.	8a\	.	16a\	.	16ff\	.	.	.	16a\LL	pro	-su	16ff\LL	pro	-su	.	.	16aa\	.	(16fff\	.
.	.	.	.	16f\JJ	.	16dd\JJ	.	.	.	16f\JJ	.	.	16dd\JJ	.	.	.	.	16ff\JJ)	.	16ddd\JJ)	.
8G/	.	8g\	.	8e/L	.	8cc\L	.	.	.	8e\L	no-	fi-	8cc\L	no-	fi-	.	.	8ee\L	.	8ccc\L	.
8GG/J	.	8g\J	.	8d/J	.	8b\J	.	.	.	8d\J	.	.	8b\J	.	.	.	.	8dd\J	.	8bb\J	.
=26	=26	=26	=26	=26	=26	=26	=26	=26	=26	=26	=26	=26	=26	=26	=26	=26	=26	=26	=26	=26	=26
8C/L	.	4g\	.	4d/	.	4b\	.	2ryy	2ryy	(4d\	-bis	-li	4b\	.	.	2ryy	2ryy	4dd\	.	4bb\	.
8GG/	.	.	.	.	.	.	.	.	.	.	.	.	.	.	.	.	.	.	.	.	.
8CC/J	.	8g\	.	8e/	.	8cc\	.	.	.	8e\)	.	.	8cc,\	-bis	-li	.	.	8ee\	.	8ccc\	.
8r	.	8r	.	8r	.	8g/	p	.	.	8r	.	.	(8e/	San-	Ma-	.	.	8r	.	8r	.
=27	=27	=27	=27	=27	=27	=27	=27	=27	=27	=27	=27	=27	=27	=27	=27	=27	=27	=27	=27	=27	=27
*	*	*tremolo	*	*	*	*	*	*	*	*	*	*	*	*	*	*	*	*	*	*	*
*	*	*	*	*tremolo	*	*	*	*	*	*	*	*	*	*	*	*	*	*	*	*	*
!LO:TX:b:t=vox	!	!LO:TX:t=P:problem:2\right:global	!	!	!	!	!	!	!	!LO:TX:a:t=2	!	!	!	!	!	!	!	!LO:TX:a:t=22	!	!LO:TX:a:t=22	!
8c\L	p	8g\L	p	8g/L	.	8.ee\L	.	2ryy	2ryy	2r	.	.	8.ee\)	.	-ri-	2ryy	2ryy	2r	.	2r	.
8c\	.	8g\	.	8g/	.	.	.	.	.	.	.	.	.	.	.	.	.	.	.	.	.
.	.	.	.	.	.	16ff\Jk	.	.	.	.	.	.	16ff\	-cta	-ae	.	.	.	.	.	.
8B\	.	8g\	.	8g/	.	16ee\LL	.	.	.	.	.	.	16ee\LL	Vir-	vir-	.	.	.	.	.	.
.	.	.	.	.	.	(16dd\	.	.	.	.	.	.	16dd\JJ	.	.	.	.	.	.	.	.
8B\J	.	8g\J	.	8g/J	.	16cc#X\)	.	.	.	.	.	.	16cc#X\LL	-go	.	.	.	.	.	.	.
.	.	.	.	.	.	16dd\JJ	.	.	.	.	.	.	16dd\JJ	.	.	.	.	.	.	.	.
*	*	*	*	*Xtremolo	*	*	*	*	*	*	*	*	*	*	*	*	*	*	*	*	*
=28	=28	=28	=28	=28	=28	=28	=28	=28	=28	=28	=28	=28	=28	=28	=28	=28	=28	=28	=28	=28	=28
!LO:TX:t=P:problem:mixed beam	!	!	!	!	!	!	!	!	!	!	!	!	!	!	!	!	!	!	!	!	!
8A\L	.	8f#X\L	.	16a/LL	.	16cc\LL	.	2ryy	2ryy	2r	.	.	16cc\LL	Vir-	.	2ryy	2ryy	2r	.	2r	.
.	.	.	.	32g/L	.	32b\L	.	.	.	.	.	.	32b\L	.	.	.	.	.	.	.	.
.	.	.	.	32a/JJJ	.	32cc\JJJ	.	.	.	.	.	.	32cc\JJJ	.	.	.	.	.	.	.	.
!	!	!	!	!	!	!LO:TX:t=P:problem:klamra łukowa	!	!	!	!	!	!	!LO:TX:t=P:problem:klamra łukowa	!	!	!	!	!	!	!	!
8F#X\	.	8f#\	.	24cc/LL	.	24ee\LL	.	.	.	.	.	.	24ee\LL	-gi-	-gi-	.	.	.	.	.	.
.	.	.	.	24b/	.	24dd\	.	.	.	.	.	.	24dd\	.	.	.	.	.	.	.	.
.	.	.	.	24a/JJ	.	24cc\JJ	.	.	.	.	.	.	24cc\JJ	.	.	.	.	.	.	.	.
8G\	.	8f#\	.	8a/L	.	8cc\L	.	.	.	.	.	.	8cc\L	-num	-nis	.	.	.	.	.	.
8GG\J	.	8g\J	.	8g/J	.	8b\J	.	.	.	.	.	.	8b\J	.	.	.	.	.	.	.	.
=29	=29	=29	=29	=29	=29	=29	=29	=29	=29	=29	=29	=29	=29	=29	=29	=29	=29	=29	=29	=29	=29
4GG/ 4G	.	8.d\L	.	8.b/L	.	8.dd\L	.	2ryy	2ryy	8.b\L	o-	mi-	8.dd\L	o-	mi-	2ryy	2ryy	2r	.	2r	.
.	.	16g\Jk	.	16b/Jk	.	16gg\Jk	.	.	.	16b\Jk	.	.	16gg\Jk	.	.	.	.	.	.	.	.
4r	.	16f#X\LL	.	(16dd\LL	.	16ff#X\LL	.	.	.	16dd\LL	-ra	-se-	16ff#X\LL	-ra	-se-	.	.	.	.	.	.
.	.	16e\	.	16cc\	.	16ee\	.	.	.	16cc\JJ	.	.	16ee\JJ	.	.	.	.	.	.	.	.
.	.	16d\	.	16b\)	.	16dd\	.	.	.	16b\LL	o-	-re-	16dd\LL	o-	-re-	.	.	.	.	.	.
.	.	16c\JJ	.	16a\JJ	.	16cc\JJ	.	.	.	16a\JJ	.	-re	16cc\JJ	.	.	.	.	.	.	.	.
=30	=30	=30	=30	=30	=30	=30	=30	=30	=30	=30	=30	=30	=30	=30	=30	=30	=30	=30	=30	=30	=30
8r	.	16B/LL	.	16g/LL	.	(16b/LL	.	2ryy	2ryy	16g\LL	-ra	no-	16b\LL	-ra	.	2ryy	2ryy	2r	.	2r	.
.	.	16A/	.	(16f#X/	.	16a/)	.	.	.	16f#X\JJ	.	.	16a\JJ	.	.	.	.	.	.	.	.
8C/L	.	16c/	.	16e/)	.	(16cc/	.	.	.	16e\LL	pro	.	16cc\LL	pro	.	.	.	.	.	.	.
.	.	16e/JJ	.	16c/JJ	.	16a/JJ)	.	.	.	16c\JJ	.	.	16a\JJ	.	.	.	.	.	.	.	.
8D/	.	8d\L	.	8B/L	.	8g/L	.	.	.	8B/	no-	.	8g\	no-	.	.	.	.	.	.	.
8DD/J	.	8d\J	.	8A/J	.	8f#X/J	.	.	.	8A/	-bis	-bis	8f#X/	-bis	-re	.	.	.	.	.	.
=31	=31	=31	=31	=31	=31	=31	=31	=31	=31	=31	=31	=31	=31	=31	=31	=31	=31	=31	=31	=31	=31
8D\L|>	.	8d\L|>	.	8f#X'/L	.	8a/L|<	.	2ryy	2ryy	8f#X\L	Ma-	no-	8a\L	Ma-	no-	2ryy	2ryy	2r	.	2r	.
.	.	.	.	.	.	.	.	.	.	.	.	.	16qqcc/	.	.	.	.	.	.	.	.
8D\|>	.	8d\|>	.	8g'/	.	8b/|<	.	.	.	8g\J	.	.	8b\J	.	.	.	.	.	.	.	.
.	.	.	.	.	.	.	.	.	.	.	.	.	16qqa/LL	.	.	.	.	.	.	.	.
.	.	.	.	.	.	.	.	.	.	.	.	.	16qqb/JJ	.	.	.	.	.	.	.	.
8D\|>	.	8d\|>	.	8a'/J	.	8cc/J|<	.	.	.	8a\	-ter	-bis	8cc\	-ter	-bis	.	.	.	.	.	.
!	!	!	!	!	!	!LO:TX:b:t=Volti&colon;	!	!	!	!	!	!	!	!	!	!	!	!	!	!	!
8D\J|>	.	8d\J|>	.	8r	.	8r	.	.	.	8r	.	.	8r	.	.	.	.	.	.	.	.
=32	=32	=32	=32	=32	=32	=32	=32	=32	=32	=32	=32	=32	=32	=32	=32	=32	=32	=32	=32	=32	=32
*tremolo	*	*	*	*	*	*	*	*	*	*	*	*	*	*	*	*	*	*	*	*	*
!	!	!LO:TX:t=P:problem:poczwórne staccato	!	!	!	!	!	!	!	!	!	!	!	!	!	!	!	!	!	!	!
!LO:TX:t=P:problem:poczwórne staccato	!	!	!	!	!	!	!	!	!	!	!	!	!	!	!	!	!	!	!	!	!
!	!	!LO:TX:t=P:problem:2\right:global	!	!	!	!	!	!	!	!	!	!	!	!	!	!	!	!	!	!	!
8D\L|>	.	8d\L|>	.	(8.a/L	.	8.ccT\L	.	2ryy	2ryy	8.a\	Ma-	no-	8.ccT\	Ma-	no-	2ryy	2ryy	2r	.	2r	.
8D\	.	8d\	.	.	.	.	.	.	.	.	.	.	.	.	.	.	.	.	.	.	.
!	!	!	!	!	!	!	!	!	!	!LO:N:vis=16	!	!	!	!	!	!	!	!	!	!	!
.	.	.	.	32g/LL	.	(32b\LL	.	.	.	32g\LLL	-ter	.	32b\LLL	-ter	.	.	.	.	.	.	.
!	!	!	!	!	!	!	!	!	!	!LO:N:vis=16	!	!	!	!	!	!	!	!	!	!	!
.	.	.	.	32a/JJJ)	.	32cc\JJJ)	.	.	.	32a\JJJ	.	.	32cc\JJJ	.	.	.	.	.	.	.	.
8D\	.	8d\	.	(16b/LL	.	16dd\LL	.	.	.	16b\LL	Chri-	.	16dd\LL	Chri-	.	.	.	.	.	.	.
.	.	.	.	16a/	.	(16cc\	.	.	.	16a\JJ	.	.	16cc\JJ	.	.	.	.	.	.	.	.
8D\J	.	8d\J	.	16g/	.	16b\)	.	.	.	16g\LL	-sti	.	16b\LL	-sti	.	.	.	.	.	.	.
.	.	.	.	16f/JJ)	.	16a\JJ	.	.	.	16f\JJ	.	.	16a\JJ	.	.	.	.	.	.	.	.
=33	=33	=33	=33	=33	=33	=33	=33	=33	=33	=33	=33	=33	=33	=33	=33	=33	=33	=33	=33	=33	=33
!LO:TX:t=P:problem:poczwórne staccato	!	!LO:TX:t=P:problem:poczwórne staccato	!	!	!	!	!	!	!	!	!	!	!	!	!	!	!	!	!	!	!
8D\L|>	.	8d\L|>	.	8g'/L	.	8b'\L	.	2ryy	2ryy	8g'\L	Ma-	.	8b\L	Ma-	.	2ryy	2ryy	2r	.	2r	.
.	.	.	.	.	.	.	.	.	.	.	.	.	16qqdd/	.	.	.	.	.	.	.	.
8D\	.	8d\	.	8a'/	.	8cc'\	.	.	.	8a'\J	.	.	8cc\J	.	.	.	.	.	.	.	.
.	.	.	.	.	.	.	.	.	.	.	.	.	16qqb/LL	.	.	.	.	.	.	.	.
.	.	.	.	.	.	.	.	.	.	.	.	.	16qqcc/JJ	.	.	.	.	.	.	.	.
8D\	.	8d\	.	8b'/J	.	8dd'\J	.	.	.	8b'\	-ter	-bis	8dd\	-ter	-bis	.	.	.	.	.	.
8D\J	.	8d\J	.	8r	.	8r	.	.	.	8r	.	.	8r	.	.	.	.	.	.	.	.
=34	=34	=34	=34	=34	=34	=34	=34	=34	=34	=34	=34	=34	=34	=34	=34	=34	=34	=34	=34	=34	=34
!LO:TX:t=P:problem:poczwórne staccato	!	!	!	!	!	!	!	!	!	!	!	!	!	!	!	!	!	!	!	!	!
8D\L|>	.	8.d\L	.	8.b/L	.	8.dd\L	.	2ryy	2ryy	8.b\L	Di-	Je-	8.dd\L	Di-	Je-	2ryy	2ryy	2r	.	2r	.
8D\	.	.	.	.	.	.	.	.	.	.	.	.	.	.	.	.	.	.	.	.	.
.	.	16B\Jk	.	16g/Jk	.	16b\Jk	.	.	.	16g\Jk	.	.	16b\Jk	.	.	.	.	.	.	.	.
8D\	.	(16e\LL	.	16cc\LL	.	16ee\LL	.	.	.	16cc\LL	-vi-	.	16ee\LL	-vi-	.	.	.	.	.	.	.
.	.	16d\	.	(16b\	.	(16dd\	.	.	.	16b\JJ	.	.	16dd\JJ	.	.	.	.	.	.	.	.
8D\J	.	16c\	.	16a\)	.	16cc\	.	.	.	16a\LL	-nae	.	16cc\LL	-nae	.	.	.	.	.	.	.
.	.	16B\JJ)	.	16g\JJ	.	16b\JJ)	.	.	.	16g\JJ	.	.	16b\JJ	.	.	.	.	.	.	.	.
=35	=35	=35	=35	=35	=35	=35	=35	=35	=35	=35	=35	=35	=35	=35	=35	=35	=35	=35	=35	=35	=35
!LO:TX:t=P:problem:poczwórne staccato	!	!	!	!	!	!	!	!	!	!	!	!	!	!	!	!	!	!	!	!	!
8D\L|>	.	(8.d\L	.	(8.b\L	.	(8.dd\L	.	2ryy	2ryy	8.b\	gra-	.	8.ddT\	gra-	.	2ryy	2ryy	2r	.	2r	.
8D\	.	.	.	.	.	.	.	.	.	.	.	.	.	.	.	.	.	.	.	.	.
!	!	!	!	!	!	!	!	!	!	!LO:N:vis=16	!	!	!	!	!	!	!	!	!	!	!
.	.	32c\LL	.	32a\LL	.	32cc\LL	.	.	.	32a\LLL	-ti-	.	32cc\LLL	-ti-	.	.	.	.	.	.	.
!	!	!	!	!	!	!	!	!	!	!LO:N:vis=16	!	!	!	!	!	!	!	!	!	!	!
.	.	32B\JJJ)	.	32g\JJJ)	.	32b\JJJ)	.	.	.	32g\JJJ	.	.	32b\JJJ	.	.	.	.	.	.	.	.
8D\	.	8A/	.	8f#X/	.	8a\	.	.	.	8f#X\	-a	-su	8a\	-a	-su	.	.	.	.	.	.
8D\J	.	8r	.	8r	.	8r	.	.	.	8r	.	.	8r	.	.	.	.	.	.	.	.
=36	=36	=36	=36	=36	=36	=36	=36	=36	=36	=36	=36	=36	=36	=36	=36	=36	=36	=36	=36	=36	=36
!LO:TX:t=P:problem:poczwórne staccato	!	!	!	!	!	!	!	!	!	!	!	!	!	!	!	!	!	!	!	!	!
!	!	!LO:TX:t=P:problem:poczwórne staccato	!	!	!	!	!	!	!	!	!	!	!	!	!	!	!	!	!	!	!
8DD/L|>	.	8d\L|>	.	8f'/L	.	8a\L|>	.	2ryy	2ryy	8f#X\L	Ma-	/Je-	8a\L	Ma-	/Je-	2ryy	2ryy	2r	.	2r	.
.	.	.	.	.	.	.	.	.	.	.	.	.	16qqcc/	.	.	.	.	.	.	.	.
8DD/	.	8d\	.	8g'/	.	8b\|>	.	.	.	8g\J	.	.	8b\J	.	.	.	.	.	.	.	.
.	.	.	.	.	.	.	.	.	.	.	.	.	16qqa/LL	.	.	.	.	.	.	.	.
.	.	.	.	.	.	.	.	.	.	.	.	.	16qqb/JJ	.	.	.	.	.	.	.	.
8DD/	.	8d\	.	8a'/J	.	8cc\J|>	.	.	.	8a\	-ter	-su/	8cc\	-ter	-su/	.	.	.	.	.	.
8DD/J	.	8d\J	.	8r	.	8r	.	.	.	8r	.	.	8r	.	.	.	.	.	.	.	.
=37	=37	=37	=37	=37	=37	=37	=37	=37	=37	=37	=37	=37	=37	=37	=37	=37	=37	=37	=37	=37	=37
!LO:TX:t=P:problem:poczwórne staccato	!	!	!	!	!	!	!	!	!	!	!	!	!	!	!	!	!	!	!	!	!
8DD/L|>	.	(8d\L|>	.	(8.a/L	.	(8.ccT\L	.	2ryy	2ryy	8.a\L	Pu-	Sanc-	8.ccT\L	Pu-	San-	2ryy	2ryy	2r	.	2r	.
8DD/	.	8d\J)|>	.	.	.	.	.	.	.	.	.	.	.	.	.	.	.	.	.	.	.
.	.	.	.	32g/LL	.	32b\LL	.	.	.	32g\LL	.	.	32b\LL	.	.	.	.	.	.	.	.
.	.	.	.	32a/JJJ)	.	32cc\JJJ)	.	.	.	32a\JJJ	.	.	32cc\JJJ	.	.	.	.	.	.	.	.
8DD/	.	(16d\LL	.	(16b/LL	.	16dd\LL	.	.	.	16b\	-ris-	.	16dd\	-ris-	.	.	.	.	.	.	.
.	.	16c\	.	16a/	.	(16cc\	.	.	.	16a\	-si-	.	16cc\	-si-	.	.	.	.	.	.	.
8DD/J	.	16B\	.	16g/	.	16b\)	.	.	.	16g\LL	-ma	.	16b\LL	-ma	.	.	.	.	.	.	.
.	.	16A\JJ)	.	16f/JJ)	.	16a\JJ	.	.	.	16f\JJ	.	.	16a\JJ	.	.	.	.	.	.	.	.
=38	=38	=38	=38	=38	=38	=38	=38	=38	=38	=38	=38	=38	=38	=38	=38	=38	=38	=38	=38	=38	=38
4GG/ 4G|<	.	(16B\LL	.	(16g/LL	.	(16b\LL	.	2ryy	2ryy	16g\LL	o-	.	16b\LL	o-	.	2ryy	2ryy	2r	.	2r	.
.	.	16c\	.	16a/	.	16cc\	.	.	.	16a\	.	.	16cc\	.	.	.	.	.	.	.	.
.	.	16d\	.	16b/	.	16dd\	.	.	.	16b\	.	.	16dd\	.	.	.	.	.	.	.	.
.	.	16e\JJ)	.	16cc/JJ)	.	16ee\JJ)	.	.	.	16cc\JJ	.	.	16ee\JJ	.	.	.	.	.	.	.	.
8r|>	.	(16d\LL	.	(16b/LL	.	16dd\LL	.	.	.	16b\LL	-ra	.	16dd\LL	-ra	.	.	.	.	.	.	.
.	.	16B\	.	16g/	.	16b\	.	.	.	16g\JJ	.	.	16b\JJ	.	.	.	.	.	.	.	.
8G\	.	16c\	.	16a/	.	16cc\	.	.	.	16a\LL	pro	.	16cc\LL	pro	.	.	.	.	.	.	.
.	.	16d\JJ)	.	16b/JJ)	.	16dd\JJ	.	.	.	16b\JJ	.	.	16dd\JJ	.	.	.	.	.	.	.	.
=39	=39	=39	=39	=39	=39	=39	=39	=39	=39	=39	=39	=39	=39	=39	=39	=39	=39	=39	=39	=39	=39
4C/|<	.	(16e\LL	.	(16cc\LL	.	(16ee\LL	.	2ryy	2ryy	16cc\LL	no-	.	16ee\LL	no-	.	2ryy	2ryy	2r	.	2r	.
.	.	16f#X\	.	16dd\	.	16ff#X\	.	.	.	16dd\	.	.	16ff#X\	.	.	.	.	.	.	.	.
.	.	16g\	.	16ee\	.	16gg\	.	.	.	16ee\	.	.	16gg\	.	.	.	.	.	.	.	.
.	.	16f#\JJ)	.	16dd\JJ)	.	16ff#\JJ)	.	.	.	16dd\JJ	.	.	16ff#\JJ	.	.	.	.	.	.	.	.
8r	.	16a\LL	.	(16ff#X\LL	.	(16aa\LL	.	.	.	16ff#X\LL	.	.	16aa\LL	.	.	.	.	.	.	.	.
.	.	16g\	.	16ee\	.	16gg\	.	.	.	16ee\JJ	.	.	16gg\JJ	.	.	.	.	.	.	.	.
8C/|<	.	16f#\	.	16dd\	.	16ff#\	.	.	.	16dd\LL	-bis	.	16ff#\LL	-bis	.	.	.	.	.	.	.
.	.	16e\JJ	.	16cc\JJ)	.	16ee\JJ)	.	.	.	16cc\JJ	.	.	16ee\JJ	.	.	.	.	.	.	.	.
=40	=40	=40	=40	=40	=40	=40	=40	=40	=40	=40	=40	=40	=40	=40	=40	=40	=40	=40	=40	=40	=40
4D/|<	.	(16e\LL	.	16cc\LL	.	(16ee\LL	.	2ryy	2ryy	16cc\LL	o-	.	16ee\LL	o-	.	2ryy	2ryy	2r	.	2r	.
.	.	16d\	.	16b\	.	16dd\	.	.	.	16b\	.	.	16dd\	.	.	.	.	.	.	.	.
.	.	16c\	.	16a\	.	16cc\	.	.	.	16a\	.	.	16cc\	.	.	.	.	.	.	.	.
.	.	16B\JJ)	.	16g\JJ	.	16b\JJ)	.	.	.	16g\JJ	.	.	16b\JJ	.	.	.	.	.	.	.	.
4DD/|<	.	(16d\LL	.	16b/LL	.	(16dd\LL	.	.	.	16b\LL	-ra	.	16dd\LL	-ra	.	.	.	.	.	.	.
.	.	16c\	.	16a/	.	16cc\	.	.	.	16a\JJ	.	.	16cc\JJ	.	.	.	.	.	.	.	.
.	.	16B\	.	16g/	.	16b\	.	.	.	16g\LL	pro	.	16b\LL	pro	.	.	.	.	.	.	.
.	.	16A\JJ)	.	16f#X/JJ	.	16a\JJ)	.	.	.	16f#X\JJ	.	.	16a\JJ	.	.	.	.	.	.	.	.
=41	=41	=41	=41	=41	=41	=41	=41	=41	=41	=41	=41	=41	=41	=41	=41	=41	=41	=41	=41	=41	=41
8GG/L	.	8d\L	.	(16g/LL	.	(16b\LL	.	2ryy	2ryy	16g\LL	no-	.	16b\LL	no-	.	2ryy	2ryy	2r	.	2r	.
.	.	.	.	16b/)	.	16dd\)	.	.	.	16b\	.	.	16dd\	.	.	.	.	.	.	.	.
8D/J	.	8d\	.	(16f#X/	.	(16a\	.	.	.	16f#X\	.	.	16a\	.	.	.	.	.	.	.	.
.	.	.	.	16a/JJ)	.	16cc\JJ)	.	.	.	16a\JJ	.	.	16cc\JJ	.	.	.	.	.	.	.	.
8G\L	.	8d\	.	(16g/LL	.	16b\LL	.	.	.	16g\LL	.	.	16b\LL	.	.	.	.	.	.	.	.
.	.	.	.	16b/)	.	(16dd\	.	.	.	16b\JJ	.	.	16dd\JJ	.	.	.	.	.	.	.	.
8D\J	.	8d\J	.	(16f#/	.	16a\	.	.	.	16f#\LL	-bis	-tis-	16a\LL	-bis	-ctis-	.	.	.	.	.	.
.	.	.	.	16a/JJ)	.	16cc\JJ)	.	.	.	16a\JJ	.	.	16cc\JJ	.	.	.	.	.	.	.	.
*	*	*Xtremolo	*	*	*	*	*	*	*	*	*	*	*	*	*	*	*	*	*	*	*
=42	=42	=42	=42	=42	=42	=42	=42	=42	=42	=42	=42	=42	=42	=42	=42	=42	=42	=42	=42	=42	=42
!	!	!LO:TX:b:t=dolce	!	!LO:TX:a:t=Dolce	!	!LO:TX:b:t=Dolce&colon;	!	!	!	!	!	!	!LO:TX:a:t=dolce	!	!	!	!	!	!	!	!
8r	.	(32B/LLL	.	(32g/LLL	.	(32b\LLL	.	2ryy	2ryy	32g\LLL	Ma-	-si-	32b\LLL	Ma-	-si-	2ryy	2ryy	2r	.	2r	.
.	.	32c/	.	32a/	.	32cc\	.	.	.	32a\	.	.	32cc\	.	.	.	.	.	.	.	.
.	.	32B/	.	32g/	.	32b\	.	.	.	32g\	.	.	32b\	.	.	.	.	.	.	.	.
.	.	32c/JJJ)	.	32a/JJJ)	.	32cc\JJJ)	.	.	.	32a\JJ	.	.	32cc\JJ	.	.	.	.	.	.	.	.
!LO:TX:t=P:problem:mixed beam	!	!	!	!	!	!	!	!	!	!	!	!	!	!	!	!	!	!	!	!	!
8G/L	.	16d\LL|>	.	16b\LL|>	.	16dd\LL|>	.	.	.	8b\J	.	.	8dd\J	.	.	.	.	.	.	.	.
.	.	16d\JJ|>	.	16b\JJ|>	.	16dd\JJ|>	.	.	.	.	.	.	.	.	.	.	.	.	.	.	.
8GG/	.	8d\	.	8b\	.	8dd\	.	.	.	8b\	-ter	-me	8dd\	-ter	-me	.	.	.	.	.	.
!	!	!	!	!LO:TX:b:t=Volti&colon;	!	!	!	!	!	!	!	!	!	!	!	!	!	!	!	!	!
8G/J	.	8r	.	8r	.	8r	.	.	.	8r	.	.	8r	.	.	.	.	.	.	.	.
=43	=43	=43	=43	=43	=43	=43	=43	=43	=43	=43	=43	=43	=43	=43	=43	=43	=43	=43	=43	=43	=43
8r	.	(32e\LLL	.	(32cc\LLL	.	32ee\LLL	.	2ryy	2ryy	32cc\LLL	Cas-	mi-	32ee\LLL	Cas-	mi-	2ryy	2ryy	2r	.	2r	.
.	.	32f#X\	.	32dd\	.	32ff#X\	.	.	.	32dd\	.	.	32ff#X\	.	.	.	.	.	.	.	.
.	.	32e\	.	32cc\	.	32ee\	.	.	.	32cc\	.	.	32ee\	.	.	.	.	.	.	.	.
.	.	32f#\JJJ)	.	32dd\JJJ)	.	32ff#\JJJ	.	.	.	32dd\JJJ	.	.	32ff#\JJJ	.	.	.	.	.	.	.	.
8C/L	.	16g\LL|>	.	16ee\LL|>	.	16gg\LL|>	.	.	.	16ee\	-tis-	.	16gg\	-tis-	.	.	.	.	.	.	.
.	.	16g\JJ|>	.	16ee\JJ|>	.	16gg\JJ|>	.	.	.	16ee\	-si-	-se-	16gg\	-si-	-se-	.	.	.	.	.	.
8E/	.	8.g\L	.	8.ee\L	.	8.gg\L	.	.	.	8.ee\	-ma	-re-	8.gg\	-ma	-re-	.	.	.	.	.	.
8C/J	.	.	.	.	.	.	.	.	.	.	.	.	.	.	.	.	.	.	.	.	.
.	.	16e\Jk	.	16cc\Jk	.	16ee\Jk	.	.	.	16cc\	o-	-re	16ee\	o-	-re	.	.	.	.	.	.
=44	=44	=44	=44	=44	=44	=44	=44	=44	=44	=44	=44	=44	=44	=44	=44	=44	=44	=44	=44	=44	=44
4D/	.	(16e\LL	.	16cc\LL	.	(16ee\LL	.	2ryy	2ryy	16cc\LL	-ra	no-	16ee\LL	-ra	no-	2ryy	2ryy	2r	.	2r	.
.	.	16d\	.	(16b\	.	16dd\	.	.	.	16b\JJ	.	.	16dd\JJ	.	.	.	.	.	.	.	.
.	.	16c\	.	16a\)	.	16cc\	.	.	.	16a\LL	pro	.	16cc\LL	pro	.	.	.	.	.	.	.
.	.	16B\JJ)	.	16g\JJ	.	16b\JJ)	.	.	.	16g\JJ	.	.	16b\JJ	.	.	.	.	.	.	.	.
4DD/	.	(16d\LL	.	16b/LL	.	(16dd\LL	.	.	.	16b\LL	no-	.	16dd\LL	no-	.	.	.	.	.	.	.
.	.	16c\	.	(16a/	.	16cc\	.	.	.	16a\JJ	.	.	16cc\JJ	.	.	.	.	.	.	.	.
.	.	16B\	.	16g/)	.	16b\	.	.	.	16g\LL	-bis	.	16b\LL	-bis	.	.	.	.	.	.	.
.	.	16A\JJ)	.	16f/JJ	.	16a\JJ)	.	.	.	16f\JJ	.	.	16a\JJ	.	.	.	.	.	.	.	.
=45	=45	=45	=45	=45	=45	=45	=45	=45	=45	=45	=45	=45	=45	=45	=45	=45	=45	=45	=45	=45	=45
8r	.	32B/LLL	.	(32g/LLL	.	(32b\LLL	.	2ryy	2ryy	32g\LLL	Ma-	.	32b\LLL	Ma-	.	2ryy	2ryy	2r	.	2r	.
.	.	(32c/	.	32a/	.	32cc\	.	.	.	32a\	.	.	32cc\	.	.	.	.	.	.	.	.
.	.	32B/)	.	32g/)	.	32b\	.	.	.	32g\	.	.	32b\	.	.	.	.	.	.	.	.
.	.	32c/JJJ	.	32a/JJJ	.	32cc\JJJ)	.	.	.	32a\JJ	.	.	32cc\JJ	.	.	.	.	.	.	.	.
!LO:TX:t=P:problem:mixed beam	!	!	!	!	!	!	!	!	!	!	!	!	!	!	!	!	!	!	!	!	!
8GG/L	.	16d\LL|>	.	16b\LL|>	.	16dd\LL|>	.	.	.	8b\J	.	.	8dd\J	.	.	.	.	.	.	.	.
.	.	16d\JJ|>	.	16b\JJ|>	.	16dd\JJ|>	.	.	.	.	.	.	.	.	.	.	.	.	.	.	.
8G/	.	8d\	.	8b\	.	8dd\	.	.	.	8b\	-ter	-bis	8dd\	-ter	-bis	.	.	.	.	.	.
8GG/J	.	8r	.	8r	.	8r	.	.	.	8r	.	.	8r	.	.	.	.	.	.	.	.
=46	=46	=46	=46	=46	=46	=46	=46	=46	=46	=46	=46	=46	=46	=46	=46	=46	=46	=46	=46	=46	=46
8r	.	(32e\LLL	.	(32cc\LLL	.	(32ee\LLL	.	2ryy	2ryy	32cc\LLL	in	mi-	32ee\LLL	in	mi-	2ryy	2ryy	2r	.	2r	.
.	.	32f#X\)	.	32dd\	.	32ff#X\	.	.	.	32dd\	.	.	32ff#X\	.	.	.	.	.	.	.	.
.	.	32e\	.	32cc\)	.	32ee\	.	.	.	32cc\	.	.	32ee\	.	.	.	.	.	.	.	.
.	.	32f#\JJJ	.	32dd\JJJ	.	32ff#\JJJ)	.	.	.	32dd\JJJ	.	.	32ff#\JJJ	.	.	.	.	.	.	.	.
8C/L	.	16g\LL|>	.	16ee\LL|>	.	16gg\LL|>	.	.	.	16ee\	Vi-	.	16gg\	Vi-	.	.	.	.	.	.	.
.	.	16g\JJ|>	.	16ee\JJ|>	.	16gg\JJ|>	.	.	.	16ee\	-o-	-se-	16gg\	-o-	-se-	.	.	.	.	.	.
8E/	.	8.g\L	.	8.ee'\L	.	8.gg\L	.	.	.	8.ee\	-la-	-re-	8.gg\	-la-	-re-	.	.	.	.	.	.
8C/J	.	.	.	.	.	.	.	.	.	.	.	.	.	.	.	.	.	.	.	.	.
.	.	16e\Jk	.	16cc\Jk	.	16ee\Jk	.	.	.	16cc\	-ta	-re	16ee\	-ta	-re	.	.	.	.	.	.
=47	=47	=47	=47	=47	=47	=47	=47	=47	=47	=47	=47	=47	=47	=47	=47	=47	=47	=47	=47	=47	=47
8BB/L	.	8d\L	.	8b\L|>	.	(16.dd\LL	.	2ryy	2ryy	8b\	o-	no-	16dd\LL	o-	no-	2ryy	2ryy	2r	.	2r	.
.	.	.	.	.	.	.	.	.	.	.	.	.	16gg\JJ	.	.	.	.	.	.	.	.
.	.	.	.	.	.	32gg\JJk)	.	.	.	.	.	.	.	.	.	.	.	.	.	.	.
!	!	!	!	!	!	!	!	!	!	!	!	!	!LO:N:vis=32	!	!	!	!	!	!	!	!
8C/	.	8e\	.	(32dd\LL	.	(32ff\LLL	.	.	.	16dd\LL	.	.	16ff\LL	-ra	.	.	.	.	.	.	.
.	.	.	.	32cc\	.	32ee\	.	.	.	.	.	.	.	.	.	.	.	.	.	.	.
!	!	!	!	!	!	!	!	!	!	!	!	!	!LO:N:vis=32	!	!	!	!	!	!	!	!
.	.	.	.	32b\	.	32dd\	.	.	.	16cc\JJ	-ra	.	16ee\JJ	.	.	.	.	.	.	.	.
.	.	.	.	32a\JJJ)	.	32cc\JJJ)	.	.	.	.	.	.	.	.	.	.	.	.	.	.	.
!	!	!	!	!	!	!	!	!	!	!	!	!	!LO:N:vis=32	!	!	!	!	!	!	!	!
8D/	.	8d\	.	8g/L	.	8b/L	.	.	.	16b\LL	.	.	16dd\LL	pro	.	.	.	.	.	.	.
!	!	!	!	!	!	!	!	!	!	!	!	!	!LO:N:vis=32	!	!	!	!	!	!	!	!
.	.	.	.	.	.	.	.	.	.	16a\JJ	.	.	16cc\JJ	.	.	.	.	.	.	.	.
8DD/J	.	8d\J	.	8c/J	.	8a/J	.	.	.	16g\LL	.	.	16b\LL	no-	.	.	.	.	.	.	.
.	.	.	.	.	.	.	.	.	.	16f#X\JJ	no-	.	16a\JJ	.	.	.	.	.	.	.	.
=48	=48	=48	=48	=48	=48	=48	=48	=48	=48	=48	=48	=48	=48	=48	=48	=48	=48	=48	=48	=48	=48
!	!	!	!	!	!	!	!	!	!	!LO:TX:a:t=sic!s=4g#	!	!	!	!	!	!	!	!	!	!	!
!LO:TX:t=P:problem:mixed beam	!	!	!	!	!	!	!	!	!	!LO:TX:a:t=sic???	!	!	!	!	!	!	!	!	!	!	!
8GG/L	.	4d\	.	4c/	.	4a/	.	2ryy	2ryy	4f\	.	.	4a\	-bis	-bis	2ryy	2ryy	2r	.	2r	.
8G/	.	.	.	.	.	.	.	.	.	.	.	.	.	.	.	.	.	.	.	.	.
!	!	!	!	!	!	!LO:TX:t=P:problem:mixed beam	!	!	!	!	!	!	!	!	!	!	!	!	!	!	!
8GG/J	.	8d\	.	8B/	.	8g\L	f	.	.	8g\	-bis	-bis.	8g\	.	.	.	.	.	.	.	.
8r	.	8r	.	8r	.	8dd\J	.	.	.	8r	.	.	8r	.	.	.	.	.	.	.	.
=49	=49	=49	=49	=49	=49	=49	=49	=49	=49	=49	=49	=49	=49	=49	=49	=49	=49	=49	=49	=49	=49
!	!	!	!	!	!	!	!	!	!	!LO:TX:a:t=17	!	!	!LO:TX:a:t=13	!	!	!	!	!	!	!	!
4DD/ 4D|<	f	4f#X\	f	4d/ 4a	f	(16cc\LL	.	2ryy	2ryy	2r	.	.	2r	.	.	2ryy	2ryy	(4dd\	f	(4aa\	f
.	.	.	.	.	.	16a\JJ)	.	.	.	.	.	.	.	.	.	.	.	.	.	.	.
.	.	.	.	.	.	16r	.	.	.	.	.	.	.	.	.	.	.	.	.	.	.
.	.	.	.	.	.	16cc\|>	.	.	.	.	.	.	.	.	.	.	.	.	.	.	.
4r	.	4g\	.	4d/ 4b	.	(16b/LL	.	.	.	.	.	.	.	.	.	.	.	4gg\	.	4bb\	.
.	.	.	.	.	.	16g/JJ)	.	.	.	.	.	.	.	.	.	.	.	.	.	.	.
.	.	.	.	.	.	16r	.	.	.	.	.	.	.	.	.	.	.	.	.	.	.
.	.	.	.	.	.	16b'\	.	.	.	.	.	.	.	.	.	.	.	.	.	.	.
=50	=50	=50	=50	=50	=50	=50	=50	=50	=50	=50	=50	=50	=50	=50	=50	=50	=50	=50	=50	=50	=50
4DD/ 4D|<	.	4a\	.	4d/ 4cc	.	(16a/LL	.	2ryy	2ryy	2r	.	.	2r	.	.	2ryy	2ryy	4ff#X\	.	4ccc\	.
.	.	.	.	.	.	16f/)	.	.	.	.	.	.	.	.	.	.	.	.	.	.	.
.	.	.	.	.	.	16d'/	.	.	.	.	.	.	.	.	.	.	.	.	.	.	.
.	.	.	.	.	.	16d'/JJ	.	.	.	.	.	.	.	.	.	.	.	.	.	.	.
4GG/ 4G|<	.	4g\	.	4d/ 4b	.	(32g/LLL	.	.	.	.	.	.	.	.	.	.	.	4gg\)	.	4bb\)	.
.	.	.	.	.	.	32a/	.	.	.	.	.	.	.	.	.	.	.	.	.	.	.
.	.	.	.	.	.	32b/	.	.	.	.	.	.	.	.	.	.	.	.	.	.	.
.	.	.	.	.	.	32cc/JJJ)	.	.	.	.	.	.	.	.	.	.	.	.	.	.	.
.	.	.	.	.	.	16dd\LL|>	.	.	.	.	.	.	.	.	.	.	.	.	.	.	.
.	.	.	.	.	.	16dd\JJ|>	.	.	.	.	.	.	.	.	.	.	.	.	.	.	.
=51	=51	=51	=51	=51	=51	=51	=51	=51	=51	=51	=51	=51	=51	=51	=51	=51	=51	=51	=51	=51	=51
4DD/ 4D	p	4f#X\	p	4d/ 4a	p	(16cc\LL	p	2ryy	2ryy	2r	.	.	2r	.	.	2ryy	2ryy	4dd\	p	4aa\	p
.	.	.	.	.	.	16a\JJ)	.	.	.	.	.	.	.	.	.	.	.	.	.	.	.
.	.	.	.	.	.	16r	.	.	.	.	.	.	.	.	.	.	.	.	.	.	.
.	.	.	.	.	.	16cc\|>	.	.	.	.	.	.	.	.	.	.	.	.	.	.	.
8r	.	4g\	.	4d/ 4b	.	(16b\LL	.	.	.	.	.	.	.	.	.	.	.	4gg\	.	4bb\	.
.	.	.	.	.	.	16g\JJ)	.	.	.	.	.	.	.	.	.	.	.	.	.	.	.
8G\	.	.	.	.	.	16r	.	.	.	.	.	.	.	.	.	.	.	.	.	.	.
.	.	.	.	.	.	16b\	.	.	.	.	.	.	.	.	.	.	.	.	.	.	.
=52	=52	=52	=52	=52	=52	=52	=52	=52	=52	=52	=52	=52	=52	=52	=52	=52	=52	=52	=52	=52	=52
8D/L	.	8g\L	.	8d/L 8b	.	8b\L	.	2ryy	2ryy	2r	.	.	2r	.	.	2ryy	2ryy	8gg\L	f	8bb\L	f
8DD/J	.	8f\J	.	8a/J	.	8a\J	.	.	.	.	.	.	.	.	.	.	.	8ff#X\J	.	8aa\J	.
!	!	!LO:TX:a:t=dolce	!	!LO:TX:b:t=Dolce	!	!LO:TX:b:t=Dolce	!	!	!	!	!	!	!	!	!	!	!	!	!	!	!
4r	.	8B/L	.	8g/L	.	8b\L	.	.	.	.	.	.	.	.	.	.	.	4r	.	4r	.
.	.	8c/J	.	8a/J	.	(8cc\J	.	.	.	.	.	.	.	.	.	.	.	.	.	.	.
=53	=53	=53	=53	=53	=53	=53	=53	=53	=53	=53	=53	=53	=53	=53	=53	=53	=53	=53	=53	=53	=53
!LO:TX:a:t=4	!	!	!	!	!	!	!	!	!	!	!	!	!	!	!	!	!	!LO:TX:a:t=3	!	!LO:TX:a:t=3	!
2r	.	(8.d\L	f	(8.b\L	p	8.dd\L)	p	2ryy	2ryy	2r	.	.	2r	.	.	2ryy	2ryy	2r	.	2r	.
.	.	16e\K)	.	16cc\K)	.	16ee\Jk	.	.	.	.	.	.	.	.	.	.	.	.	.	.	.
.	.	8d\|>	.	8b\|>	.	8dd\L|>	.	.	.	.	.	.	.	.	.	.	.	.	.	.	.
.	.	8d\J|>	.	8b\J|>	.	8dd\J|>	.	.	.	.	.	.	.	.	.	.	.	.	.	.	.
=54	=54	=54	=54	=54	=54	=54	=54	=54	=54	=54	=54	=54	=54	=54	=54	=54	=54	=54	=54	=54	=54
2r	.	(8.e\L	.	(8.cc\L	.	(8.ee\L	.	2ryy	2ryy	2r	.	.	2r	.	.	2ryy	2ryy	2r	.	2r	.
.	.	16f#X\K)	.	16dd\K)	.	16ff\Jk)	.	.	.	.	.	.	.	.	.	.	.	.	.	.	.
.	.	8g\|>	.	8ee\|>	.	8gg\L|>	.	.	.	.	.	.	.	.	.	.	.	.	.	.	.
.	.	8e\J|>	.	8cc\J|>	.	8ee\J|>	.	.	.	.	.	.	.	.	.	.	.	.	.	.	.
=55	=55	=55	=55	=55	=55	=55	=55	=55	=55	=55	=55	=55	=55	=55	=55	=55	=55	=55	=55	=55	=55
2r	.	8.d\L	.	(8.b\L	.	8.dd\L	.	2ryy	2ryy	2r	.	.	2r	.	.	2ryy	2ryy	2r	.	2r	.
.	.	16B\Jk	.	16g\Jk)	.	16b\Jk	.	.	.	.	.	.	.	.	.	.	.	.	.	.	.
.	.	8.d\L	.	(8.b\L	.	8.dd\L	.	.	.	.	.	.	.	.	.	.	.	.	.	.	.
.	.	16B\Jk	.	16g\Jk)	.	16b\Jk	.	.	.	.	.	.	.	.	.	.	.	.	.	.	.
=56	=56	=56	=56	=56	=56	=56	=56	=56	=56	=56	=56	=56	=56	=56	=56	=56	=56	=56	=56	=56	=56
2r	.	4d\	.	4b\	.	4dd\	.	2ryy	2ryy	2r	.	.	2r	.	.	2ryy	2ryy	4r	.	4r	.
.	.	8r	.	8r	.	8r	.	.	.	.	.	.	.	.	.	.	.	8r	.	8r	.
!	!	!	!	!	!	!	!	!	!	!	!	!	!	!	!	!	!	!LO:TX:b:t=dolce	!	!LO:TX:b:t=Dolce	!
.	.	8B/	.	8g/	mf	8b\	.	.	.	.	.	.	.	.	.	.	.	8gg\	.	8bb\	.
=57	=57	=57	=57	=57	=57	=57	=57	=57	=57	=57	=57	=57	=57	=57	=57	=57	=57	=57	=57	=57	=57
!	!	!	!	!	!	!LO:TX:t=P:problem:mf=mezzo forte	!	!	!	!	!	!	!	!	!	!	!	!	!	!	!
8r	.	16d\LL	.	(16b/LL	.	(16dd\LL	mf	2ryy	2ryy	2r	.	.	2r	.	.	2ryy	2ryy	(16bb\LL	.	(16ddd\LL	.
.	.	16c\JJ	.	16a/JJ)	.	16cc\JJ)	.	.	.	.	.	.	.	.	.	.	.	16aa\JJ)	.	16ccc\JJ)	.
8B\L	mf	4c\	.	4a/	.	4cc\	.	.	.	.	.	.	.	.	.	.	.	4aa\	.	4ccc\	.
8F#X\	.	.	.	.	.	.	.	.	.	.	.	.	.	.	.	.	.	.	.	.	.
8D\J	.	8A/	.	8f#X/	.	8a\	.	.	.	.	.	.	.	.	.	.	.	8ff#X\	.	8aa\	.
=58	=58	=58	=58	=58	=58	=58	=58	=58	=58	=58	=58	=58	=58	=58	=58	=58	=58	=58	=58	=58	=58
8r	.	16c/LL	.	16a/LL	.	(16cc\LL	.	2ryy	2ryy	2r	.	.	2r	.	.	2ryy	2ryy	16aa\LL	.	(16ccc\LL	.
.	.	16B/JJ	.	16g/JJ	.	16b\JJ)	.	.	.	.	.	.	.	.	.	.	.	16gg\JJ	.	16bb\JJ)	.
8GG/L	.	4B/	.	4g/	.	4b\	.	.	.	.	.	.	.	.	.	.	.	4gg\	.	4bb\	.
8BB/	.	.	.	.	.	.	.	.	.	.	.	.	.	.	.	.	.	.	.	.	.
8D/J	.	8c/	.	8a/	.	8cc\	.	.	.	.	.	.	.	.	.	.	.	8aa\	.	8ccc\	.
=59	=59	=59	=59	=59	=59	=59	=59	=59	=59	=59	=59	=59	=59	=59	=59	=59	=59	=59	=59	=59	=59
!LO:TX:t=P:problem:mixed beam	!	!	!	!	!	!	!	!	!	!	!	!	!	!	!	!	!	!	!	!	!
8G/L	.	8d\L	.	8b\L	.	8dd\L	.	2ryy	2ryy	2r	.	.	2r	.	.	2ryy	2ryy	8bb\	.	8ddd\	.
8GG/J	.	(16g\L	.	(16ee\L	.	(16gg\L	.	.	.	.	.	.	.	.	.	.	.	8r	.	8r	.
.	.	16f\JJ	.	16dd\JJ)	.	16ff\JJ)	.	.	.	.	.	.	.	.	.	.	.	.	.	.	.
4r	.	16e\LL	.	16cc\LL	.	16ee\LL	.	.	.	.	.	.	.	.	.	.	.	4r	.	4r	.
.	.	16d\	.	(16b\	.	(16dd\	.	.	.	.	.	.	.	.	.	.	.	.	.	.	.
.	.	16c\)	.	16a\)	.	16cc\)	.	.	.	.	.	.	.	.	.	.	.	.	.	.	.
.	.	16B\JJ	.	16g\JJ	.	16b\JJ	.	.	.	.	.	.	.	.	.	.	.	.	.	.	.
=60	=60	=60	=60	=60	=60	=60	=60	=60	=60	=60	=60	=60	=60	=60	=60	=60	=60	=60	=60	=60	=60
8C/L	f	8c\L	.	8c/L	.	8a/L	.	2ryy	2ryy	2r	.	.	2r	.	.	2ryy	2ryy	8cc\L	f	8aa\L	f
!	!	!	!	!	!	!LO:TX:t=P:problem:klamra łukowa	!	!	!	!	!	!	!	!	!	!	!	!LO:TX:t=P:problem:klamra łukowa	!	!LO:TX:t=P:problem:klamra łukowa	!
8AA/	.	8e\	.	16e/L	.	24cc/L	.	.	.	.	.	.	.	.	.	.	.	24ee\L	.	24ccc\L	.
.	.	.	.	.	.	24b/	.	.	.	.	.	.	.	.	.	.	.	24dd\	.	24bb\	.
.	.	.	.	16c/JJ	.	.	.	.	.	.	.	.	.	.	.	.	.	.	.	.	.
.	.	.	.	.	.	24a/JJ	.	.	.	.	.	.	.	.	.	.	.	24cc\JJ	.	24aa\JJ	.
8D/	.	8d\	.	8B/L	.	8g/L	.	.	.	.	.	.	.	.	.	.	.	8b\L	.	8gg\L	.
8DD/J	.	8d\J	.	8A/J	.	8f/J	.	.	.	.	.	.	.	.	.	.	.	8a\J	.	8ff#X\J	.
=61	=61	=61	=61	=61	=61	=61	=61	=61	=61	=61	=61	=61	=61	=61	=61	=61	=61	=61	=61	=61	=61
8GG/	p	8d\	.	16B/LL	p	16g/LL	p	2ryy	2ryy	2r	.	.	2r	.	.	2ryy	2ryy	(16b\LL	p	(16gg\LL	p
.	.	.	.	(16d/	.	16b/	.	.	.	.	.	.	.	.	.	.	.	16dd\)	.	16bb\)	.
8r	.	8r	.	16c/	.	16a/	.	.	.	.	.	.	.	.	.	.	.	(16cc\	.	(16aa\	.
.	.	.	.	16d/JJ)	.	16b/JJ	.	.	.	.	.	.	.	.	.	.	.	16dd\JJ)	.	16bb\JJ)	.
8GG/	.	8d\	.	16B/LL	.	16g/LL	.	.	.	.	.	.	.	.	.	.	.	(16b\LL	.	(16gg\LL	.
.	.	.	.	(16d/	.	16b/	.	.	.	.	.	.	.	.	.	.	.	16dd\)	.	16bb\)	.
8r	.	8r	.	16c/	.	16a/	.	.	.	.	.	.	.	.	.	.	.	(16cc\	.	(16aa\	.
.	.	.	.	16d/JJ)	.	16b/JJ	.	.	.	.	.	.	.	.	.	.	.	16dd\JJ)	.	16bb\JJ)	.
=62	=62	=62	=62	=62	=62	=62	=62	=62	=62	=62	=62	=62	=62	=62	=62	=62	=62	=62	=62	=62	=62
8r	f	8r	.	8B/L	f	8g/L	f	2ryy	2ryy	2r	.	.	4r	.	.	2ryy	2ryy	8b\L	f	8gg\L	f
!LO:TX:t=P:problem:mixed beam	!	!	!	!	!	!	!	!	!	!	!	!	!	!	!	!	!	!	!	!	!
8G/L	.	8d\L	.	8G/ 8d 8b	.	8d/ 8b 8gg	.	.	.	.	.	.	.	.	.	.	.	8bb\	.	8ggg\	.
8GG/J	.	8d\	.	8G/J 8d 8b	.	8d/J 8b 8gg	.	.	.	.	.	.	8r	.	.	.	.	8bb\J	.	8ggg\J	.
!	!	!LO:TX:a:t=v&colon;Cito	!	!	!	!	!	!	!	!	!	!	!	!	!	!	!	!	!	!	!
!	!	!LO:TX:t=P:problem:wykreślone 6 taktów	!	!	!	!	!	!	!	!	!	!	!	!	!	!	!	!	!	!	!
8r	.	8d\J	.	8r	.	8d/	.	.	.	.	.	.	8d/	Ma-	Je-	.	.	8r	.	8r	.
=63	=63	=63	=63	=63	=63	=63	=63	=63	=63	=63	=63	=63	=63	=63	=63	=63	=63	=63	=63	=63	=63
!	!	!	!	!LO:TX:b:t=vox	!LO:DY:a	!LO:TX:b:t=vox	!	!	!	!	!	!	!	!	!	!	!	!LO:TX:a:t=10	!	!LO:TX:a:t=10	!
8r	.	8r	.	8B/	p	(16d/LL	p	2ryy	2ryy	2r	.	.	16d/LL	.	.	2ryy	2ryy	2r	.	2r	.
.	.	.	.	.	.	16g/JJ)	.	.	.	.	.	.	16g/JJ	.	.	.	.	.	.	.	.
!LO:TX:b:t=vox	!	!LO:TX:b:t=vox	!	!	!	!	!	!	!	!	!	!	!	!	!	!	!	!	!	!	!
8GG/L	p	8d\L	p	4B/	.	4g/	.	.	.	.	.	.	4g/	-ter	-su	.	.	.	.	.	.
8BB/	.	8d\	.	.	.	.	.	.	.	.	.	.	.	.	.	.	.	.	.	.	.
8GG/J	.	8d\J	.	16f#X/LL	.	(16a/LL	.	.	.	.	.	.	16a\LL	Ma-	.	.	.	.	.	.	.
.	.	.	.	16g/JJ	.	16b/JJ)	.	.	.	.	.	.	16b\JJ	.	.	.	.	.	.	.	.
=64	=64	=64	=64	=64	=64	=64	=64	=64	=64	=64	=64	=64	=64	=64	=64	=64	=64	=64	=64	=64	=64
8r	.	8r	.	16g/LL	.	16b\LL	.	2ryy	2ryy	2r	.	.	16b\LL	.	Je-	2ryy	2ryy	2r	.	2r	.
.	.	.	.	(16a/	.	(16cc\	.	.	.	.	.	.	16cc\	.	.	.	.	.	.	.	.
8D\L	.	8d\L	.	16f#X/)	.	16a\)	.	.	.	.	.	.	16a\	.	.	.	.	.	.	.	.
.	.	.	.	16e/JJ	.	16g#X\JJ	.	.	.	.	.	.	16g#X\JJ	.	.	.	.	.	.	.	.
8F#X\	.	8d\	.	8f#/L	.	8a/L	.	.	.	.	.	.	8a\	-ter	-su	.	.	.	.	.	.
8D\J	.	8d\J	.	8d/J	.	(16d/L	.	.	.	.	.	.	16d/LL	in-	po-	.	.	.	.	.	.
.	.	.	.	.	.	16f/JJ)	.	.	.	.	.	.	16f#X/JJ	.	.	.	.	.	.	.	.
=65	=65	=65	=65	=65	=65	=65	=65	=65	=65	=65	=65	=65	=65	=65	=65	=65	=65	=65	=65	=65	=65
8r	.	8r	.	8f/	.	8a/	.	2ryy	2ryy	2r	.	.	[8a\	-te-	.	2ryy	2ryy	2r	.	2r	.
8D\L	.	8d\L	.	4f/	.	4a/	.	.	.	.	.	.	4a\]	.	.	.	.	.	.	.	.
8F#X\	.	8d\	.	.	.	.	.	.	.	.	.	.	.	.	.	.	.	.	.	.	.
8D\J	.	8d\J	.	(16g/LL	.	(16b/LL	.	.	.	.	.	.	16b\LL	-me-	-ten-	.	.	.	.	.	.
.	.	.	.	16a/JJ)	.	16cc/JJ)	.	.	.	.	.	.	16cc\JJ	.	.	.	.	.	.	.	.
=66	=66	=66	=66	=66	=66	=66	=66	=66	=66	=66	=66	=66	=66	=66	=66	=66	=66	=66	=66	=66	=66
8r	.	8r	.	16a/LL	.	(16cc\LL	.	2ryy	2ryy	4r	.	.	16cc\LL	-ra-	-tis-	2ryy	2ryy	2r	.	2r	.
.	.	.	.	16b/JJ	.	16dd\JJ)	.	.	.	.	.	.	16dd\JJ	.	-si-	.	.	.	.	.	.
!LO:TX:t=P:problem:mixed beam	!	!	!	!	!	!	!	!	!	!	!	!	!	!	!	!	!	!	!	!	!
8G/L	.	8d\L	.	8g/	.	8b\	.	.	.	.	.	.	8b\	-ta	-me	.	.	.	.	.	.
8GG/	.	8d\J	.	8r	.	8r	.	.	.	8r	.	.	8r	.	.	.	.	.	.	.	.
8BB'/J	.	8r	.	8b\	.	16gg\LL	.	.	.	8b\	o-	Je-	16gg\LL	o-	Je-	.	.	.	.	.	.
.	.	.	.	.	.	16dd\JJ	.	.	.	.	.	.	16dd\JJ	.	.	.	.	.	.	.	.
=67	=67	=67	=67	=67	=67	=67	=67	=67	=67	=67	=67	=67	=67	=67	=67	=67	=67	=67	=67	=67	=67
!	!	!	!	!LO:TX:t=P:problem:mixed beam	!	!	!	!	!	!	!	!	!	!	!	!	!	!	!	!	!
8C/L	.	8g\L	.	8.cc/L	.	8.ee\L	.	2ryy	2ryy	8.cc\	-ra	.	8.ee\	-ra	.	2ryy	2ryy	2r	.	2r	.
8AA/	.	8a\	.	.	.	.	.	.	.	.	.	.	.	.	.	.	.	.	.	.	.
.	.	.	.	16e/Jk	.	16cc\Jk	.	.	.	16e\	/o-	-su	16cc\	o-	-su	.	.	.	.	.	.
8D/	.	8g\	.	(16e/LL	.	(16cc\LL	.	.	.	16e\LL	-ra/	for-	16cc\LL	-ra	for-	.	.	.	.	.	.
.	.	.	.	16d/)	.	16b\)	.	.	.	16d\JJ	.	.	16b\JJ	.	.	.	.	.	.	.	.
8DD/J	.	8f#X\J	.	(16d/	.	(16b\	.	.	.	16c\LL	pro	.	16b\LL	pro	.	.	.	.	.	.	.
.	.	.	.	16c/JJ)	.	16a\JJ)	.	.	.	16B\JJ	.	.	16a\JJ	.	.	.	.	.	.	.	.
=68	=68	=68	=68	=68	=68	=68	=68	=68	=68	=68	=68	=68	=68	=68	=68	=68	=68	=68	=68	=68	=68
!LO:TX:t=P:problem:mixed beam	!	!LO:TX:a:t=sic!s=4f#	!	!	!	!	!	!	!	!	!	!	!	!	!	!	!	!	!	!	!
8GG/L	.	4f\	.	4c/	.	4a/	.	2ryy	2ryy	4c/	no-	-tis-	4a\	no-	-tis-	2ryy	2ryy	2r	.	2r	.
8G/	.	.	.	.	.	.	.	.	.	.	.	.	.	.	.	.	.	.	.	.	.
8GG/J	.	8g\	.	8B/	.	8g/L	.	.	.	8B,/	-bis	-si-	8g,\	-bis	-si-	.	.	.	.	.	.
8r	.	8r	.	8r	.	8g/J	.	.	.	(8g\	Ma-	-me	8g\	Ma-	-me	.	.	.	.	.	.
=69	=69	=69	=69	=69	=69	=69	=69	=69	=69	=69	=69	=69	=69	=69	=69	=69	=69	=69	=69	=69	=69
8r	.	8r	.	8e/	.	16g\LL	.	2ryy	2ryy	8e\)	.	mi-	16g\LL	.	mi-	2ryy	2ryy	2r	.	2r	.
.	.	.	.	.	.	16cc\JJ	.	.	.	.	.	.	16cc\JJ	.	.	.	.	.	.	.	.
8C/L	.	8g\L	.	4e/	.	4cc\	.	.	.	4e,\	-ter	.	4cc,\	-ter	-se-	.	.	.	.	.	.
8E/	.	8g\	.	.	.	.	.	.	.	.	.	.	.	.	.	.	.	.	.	.	.
8C/J	.	8g\J	.	(16b\LL	.	16dd\LL	.	.	.	16b\LL	Ma-	-se-	16dd\LL	Ma-	.	.	.	.	.	.	.
.	.	.	.	16cc\JJ)	.	16ee\JJ	.	.	.	16cc\JJ	.	.	16ee\JJ	.	.	.	.	.	.	.	.
=70	=70	=70	=70	=70	=70	=70	=70	=70	=70	=70	=70	=70	=70	=70	=70	=70	=70	=70	=70	=70	=70
8r	.	8r	.	(16cc\LL	.	(16ee\LL	.	2ryy	2ryy	16cc\LL	.	-re-	16ee\LL	.	-re-	2ryy	2ryy	2r	.	2r	.
.	.	.	.	16dd\	.	16ff\	.	.	.	16dd\	.	.	16ffn\	.	.	.	.	.	.	.	.
8GG/L	.	8g\L	.	16b\	.	16dd\	.	.	.	16b\	.	.	16dd\	.	.	.	.	.	.	.	.
.	.	.	.	16a#X\JJ)	.	16cc#X\JJ)	.	.	.	16a#X\JJ	.	.	16cc#X\JJ	.	.	.	.	.	.	.	.
8BB/	.	8g\	.	8b\L	.	8dd\L	.	.	.	8b\	-ter	-re	8dd\	-ter	-re	.	.	.	.	.	.
8GG/J	.	8g\J	.	8g\J	.	(16g\L	.	.	.	8g\	in	.	16g\LL	in	no-	.	.	.	.	.	.
.	.	.	.	.	.	16b\JJ)	.	.	.	.	.	.	16b\JJ	.	.	.	.	.	.	.	.
=71	=71	=71	=71	=71	=71	=71	=71	=71	=71	=71	=71	=71	=71	=71	=71	=71	=71	=71	=71	=71	=71
8r	.	8r	.	8b\	.	8dd\	.	2ryy	2ryy	[8b\	te-	no-	[8dd\	te-	-bis	2ryy	2ryy	2r	.	2r	.
8GG/L	.	8g\L	.	4b\	.	4dd\	.	.	.	4b\]	.	.	4dd\]	.	.	.	.	.	.	.	.
8BB/	.	8g\	.	.	.	.	.	.	.	.	.	.	.	.	.	.	.	.	.	.	.
8GG/J	.	8g\J	.	16cc\LL	.	16ee\LL	.	.	.	16cc\LL	-me-	.	16ee\LL	-me-	no-	.	.	.	.	.	.
.	.	.	.	16dd\JJ	.	16ff\JJ	.	.	.	16dd\JJ	.	.	16ff\JJ	.	.	.	.	.	.	.	.
=72	=72	=72	=72	=72	=72	=72	=72	=72	=72	=72	=72	=72	=72	=72	=72	=72	=72	=72	=72	=72	=72
8r	.	8r	.	16dd\LL	.	16ff\LL	.	2ryy	2ryy	16dd\LL	-ra-	.	16ff\LL	-ra-	.	2ryy	2ryy	2r	.	2r	.
.	.	.	.	16ee\JJ	.	16gg\JJ	.	.	.	16ee\JJ	.	.	16gg\JJ	.	.	.	.	.	.	.	.
8C/L	.	8g\L	.	8cc\	.	8ee\	.	.	.	8cc\	-ta	-bis	8ee\	-ta	-bis	.	.	.	.	.	.
8CC/J	.	8g\J	.	4r	.	8r	.	.	.	4r	.	.	4r	.	.	.	.	.	.	.	.
8r	.	8r	.	.	.	8cc\	.	.	.	.	.	.	.	.	.	.	.	.	.	.	.
=73	=73	=73	=73	=73	=73	=73	=73	=73	=73	=73	=73	=73	=73	=73	=73	=73	=73	=73	=73	=73	=73
!	!	!	!	!	!	!	!	!	!	!LO:TX:a:t=7	!	!	!LO:TX:t=P:problem:2\right:global	!	!	!	!	!	!	!	!
4C/|<	.	8r	.	8r	.	8cc\L|>	.	2ryy	2ryy	2r	.	.	2cc\	Ma-	Je-	2ryy	2ryy	8r	.	8r	.
.	.	(8g\L	.	(8b-X\L	.	8cc\|>	.	.	.	.	.	.	.	.	.	.	.	8gg\L	p	(8bb-X\L	p
4r	.	8fn\	.	8a\	.	8cc\|>	.	.	.	.	.	.	.	.	.	.	.	8ffn\	.	8aa\	.
.	.	8e\J)	.	8g\J)	.	8cc\J|>	.	.	.	.	.	.	.	.	.	.	.	8ee\J	.	8gg\J)	.
=74	=74	=74	=74	=74	=74	=74	=74	=74	=74	=74	=74	=74	=74	=74	=74	=74	=74	=74	=74	=74	=74
*	*	*	*	*	*	*tremolo	*	*	*	*	*	*	*	*	*	*	*	*	*	*	*
!	!	!	!	!	!	!LO:TX:t=P:problem:poczwórne staccato	!	!	!	!	!	!	!	!	!	!	!	!	!	!	!
4FFn/|<	.	8.f\L	.	(8.a\L	.	8cc\L|>	.	2ryy	2ryy	2r	.	.	4.cc\	-ter	.	2ryy	2ryy	8.ff\L	.	(8.aa\L	.
.	.	.	.	.	.	8cc\	.	.	.	.	.	.	.	.	.	.	.	.	.	.	.
.	.	16g\K	.	16b\K	.	.	.	.	.	.	.	.	.	.	.	.	.	16gg\K	.	16bb\K)	.
4r	.	8f\	.	8a\)	.	8cc\	.	.	.	.	.	.	.	.	.	.	.	8ff\	.	8aa'\	.
.	.	8f\J	.	8a\J	.	8cc\J	.	.	.	.	.	.	8cc\	a-	-su	.	.	8ff\J	.	8aa'\J	.
=75	=75	=75	=75	=75	=75	=75	=75	=75	=75	=75	=75	=75	=75	=75	=75	=75	=75	=75	=75	=75	=75
!	!	!	!	!	!	!LO:TX:t=P:problem:poczwórne staccato	!	!	!	!	!	!	!	!	!	!	!	!	!	!	!
4C/|<	.	(8B-X/L	.	8g/L	.	8cc\L|>	.	2ryy	2ryy	2r	.	.	4.cc\	-ma-	per-	2ryy	2ryy	8b-X/L	.	(8gg\L	.
.	.	8A/	.	(8fn/	.	8cc\	.	.	.	.	.	.	.	.	.	.	.	8a/	.	8ff\	.
4r	.	8G/)	.	8e/)	.	8cc\	.	.	.	.	.	.	.	.	.	.	.	8g/	.	8ee\	.
.	.	8A/J	.	8f/J	.	8cc\J	.	.	.	.	.	.	8cc\	-bi-	-fec-	.	.	8a/J	.	8ff\J)	.
=76	=76	=76	=76	=76	=76	=76	=76	=76	=76	=76	=76	=76	=76	=76	=76	=76	=76	=76	=76	=76	=76
!LO:TX:t=P:problem:mixed beam	!	!	!	!	!	!	!	!	!	!	!	!	!	!	!	!	!	!	!	!	!
8C\L|<	.	8B-X'/L	.	8g/L	.	8cc\L|>	.	2ryy	2ryy	2r	.	.	4cc,\	-lis	-tis-	2ryy	2ryy	8b/L	.	8gg\L	.
8F\J|>	.	8A'/J	.	8f/J	.	8cc\|>	.	.	.	.	.	.	.	.	.	.	.	8a/J	.	8ff\J	.
4r	.	4r	.	4r	.	(8cc\	.	.	.	.	.	.	8cc\L	Ma-	-si-	.	.	4r	.	4r	.
.	.	.	.	.	.	8cc#X\J)	.	.	.	.	.	.	8cc#X\J	.	.	.	.	.	.	.	.
=77	=77	=77	=77	=77	=77	=77	=77	=77	=77	=77	=77	=77	=77	=77	=77	=77	=77	=77	=77	=77	=77
!	!	!	!	!	!	!LO:TX:t=P:problem:poczwórne staccato	!	!	!	!	!	!	!	!	!	!	!	!	!	!	!
4D\|>	.	8r	.	8r	.	8dd\L|>	.	2ryy	2ryy	2r	.	.	2dd\	.	-me	2ryy	2ryy	8r	.	8r	.
.	.	8a\L	.	(8cc\L	.	8dd\	.	.	.	.	.	.	.	.	.	.	.	8aa\L	.	(8ccc\L	.
4r	.	8g\	.	8bn\	.	8dd\	.	.	.	.	.	.	.	.	.	.	.	8gg\	.	8bbn\	.
.	.	8f#X\J	.	8a\J)	.	8dd\J	.	.	.	.	.	.	.	.	.	.	.	8ff#X\J	.	8aa\J)	.
=78	=78	=78	=78	=78	=78	=78	=78	=78	=78	=78	=78	=78	=78	=78	=78	=78	=78	=78	=78	=78	=78
!	!	!	!	!	!	!LO:TX:t=P:problem:poczwórne staccato	!	!	!	!	!	!	!	!	!	!	!	!	!	!	!
4GG/|<	.	(8.g\L	.	8.b\L	.	8dd\L|>	.	2ryy	2ryy	2r	.	.	4.dd\	-ter	mi-	2ryy	2ryy	8gg\L	.	(8.bb\L	.
.	.	.	.	.	.	8dd\	.	.	.	.	.	.	.	.	.	.	.	8aa\	.	.	.
.	.	16a\K	.	(16cc\K	.	.	.	.	.	.	.	.	.	.	.	.	.	.	.	16ccc\K)	.
4r	.	8g\	.	8b\)	.	8dd\	.	.	.	.	.	.	.	.	.	.	.	8gg\	.	8bb'\	.
.	.	8g\J)	.	8b\J|>	.	8dd\J	.	.	.	.	.	.	8dd\	a-	-se-	.	.	8gg\J	.	8bb'\J	.
=79	=79	=79	=79	=79	=79	=79	=79	=79	=79	=79	=79	=79	=79	=79	=79	=79	=79	=79	=79	=79	=79
!	!	!	!	!	!	!LO:TX:t=P:problem:poczwórne staccato	!	!	!	!	!	!	!	!	!	!	!	!	!	!	!
4DD/|<	.	8c/L	.	8a/L	.	8dd\L|>	.	2ryy	2ryy	2r	.	.	4.dd\	-ma-	-re-	2ryy	2ryy	8cc\L	.	(8aa\L	.
.	.	(8Bn/	.	(8g/	.	8dd\	.	.	.	.	.	.	.	.	.	.	.	8bn\	.	8gg\	.
!LO:TX:b:t=V&colon;	!	!	!	!	!	!	!	!	!	!	!	!	!	!	!	!	!	!	!	!	!
4r	.	8A/)	.	8f#X/)	.	8dd\	.	.	.	.	.	.	.	.	.	.	.	8a\	.	8ff#X\	.
.	.	8B/J	.	8g/J	.	8dd\J	.	.	.	.	.	.	8dd\	-bi-	.	.	.	8b\J	.	8gg\J)	.
*	*	*	*	*	*	*Xtremolo	*	*	*	*	*	*	*	*	*	*	*	*	*	*	*
=80	=80	=80	=80	=80	=80	=80	=80	=80	=80	=80	=80	=80	=80	=80	=80	=80	=80	=80	=80	=80	=80
8D\L|>	.	(8c/L	.	(8a/L	.	8dd\L|>	.	2ryy	2ryy	4r	.	.	8dd\	-lis	-re	2ryy	2ryy	8cc\L	.	8aa\L	.
8G\J|>	.	8B/J)	.	8g/J)	.	8dd\J|>	.	.	.	.	.	.	8r	.	.	.	.	8b\J	.	8gg\J	.
4r	.	(8B/L	.	(8g/L	.	(8b\L	.	.	.	8g\	Ma-	Je-	8b\	Ma-	Je-	.	.	4r	.	4r	.
.	.	8c/J)	.	8a/J)	.	8cc\J)	.	.	.	8a\	-ter	-su	8cc\	-ter	-su	.	.	.	.	.	.
=81	=81	=81	=81	=81	=81	=81	=81	=81	=81	=81	=81	=81	=81	=81	=81	=81	=81	=81	=81	=81	=81
!LO:TX:t=P:problem:mixed beam	!	!	!	!	!	!	!	!	!	!	!	!	!	!	!	!	!	!LO:TX:a:t=24	!	!LO:TX:a:t=24	!
8G/L	.	8.d\L	.	8.b\L	.	8.dd\L	.	2ryy	2ryy	8.b\	/Ma-	per-	8.dd\	/Ma-	glo-	2ryy	2ryy	2r	.	2r	.
8GG/J	.	.	.	.	.	.	.	.	.	.	.	.	.	.	.	.	.	.	.	.	.
.	.	16e\Jk	.	16cc\Jk	.	16ee\Jk	.	.	.	16cc\	-ter/	-fec-	16ee\	-ter/	.	.	.	.	.	.	.
8r	.	(16g\LL	.	(16ee\LL	.	16gg\LL	.	.	.	16ee\LL	ad-	-tis-	16gg\LL	ad-	-ri-	.	.	.	.	.	.
.	.	16f\	.	16dd\	.	(16ffn\	.	.	.	16dd\JJ	.	.	16ff\JJ	.	.	.	.	.	.	.	.
8G\	.	16e\	.	16cc\	.	16ee\)	.	.	.	16cc\LL	-mi-	-si-	16ee\LL	-mi-	-o-	.	.	.	.	.	.
.	.	16d\JJ)	.	16b\JJ)	.	16dd\JJ	.	.	.	16b\JJ	.	.	16dd\JJ	.	.	.	.	.	.	.	.
=82	=82	=82	=82	=82	=82	=82	=82	=82	=82	=82	=82	=82	=82	=82	=82	=82	=82	=82	=82	=82	=82
!	!	!	!	!LO:TX:t=P:problem:mixed beam	!	!	!	!	!	!	!	!	!	!	!	!	!	!	!	!	!
8C/L	.	8g\L	.	8cc\L	.	8ee\L	.	2ryy	2ryy	8cc\	-ra-	-me	8ee\	-ra-	-sis-	2ryy	2ryy	2r	.	2r	.
8BB/	.	8g\	.	8dd\	.	8ff\J	.	.	.	8dd\	-bi-	.	8ff\	-bi-	-si-	.	.	.	.	.	.
8C/	.	8g\	.	8ee\	.	8gg\L	.	.	.	8ee\	-lis	mi-	8gg,\	-lis	-me	.	.	.	.	.	.
8E/J	.	8e\J	.	8g\J	.	(16cc\L	.	.	.	8g\	o-	-se-	16cc\LL	o-	mi-	.	.	.	.	.	.
.	.	.	.	.	.	16b-X\JJ)	.	.	.	.	.	.	16b-X\JJ	.	.	.	.	.	.	.	.
=83	=83	=83	=83	=83	=83	=83	=83	=83	=83	=83	=83	=83	=83	=83	=83	=83	=83	=83	=83	=83	=83
8F\L	.	8cc\L	.	8f/L	.	8a\L	.	2ryy	2ryy	8f\	-ra	-re-	8a\	-ra	.	2ryy	2ryy	2r	.	2r	.
8E\	.	8a\	.	8g/	.	8cc#X\J	.	.	.	8e\	/o-	-re	8cc#X\	o-	-se-	.	.	.	.	.	.
8D\	.	8a\	.	8f/	.	8dd\L	.	.	.	8f\	-ra/	no-	8dd\	-ra	-re-	.	.	.	.	.	.
8F\J	.	8a\J	.	8d/J	.	16ee\L	.	.	.	8d\	pro	-bis	16ee\LL	pro	-re	.	.	.	.	.	.
.	.	.	.	.	.	16ff\JJ	.	.	.	.	.	.	16ff\JJ	.	.	.	.	.	.	.	.
=84	=84	=84	=84	=84	=84	=84	=84	=84	=84	=84	=84	=84	=84	=84	=84	=84	=84	=84	=84	=84	=84
8G/L	.	4g\	.	4e/	.	(4cc\	.	2ryy	2ryy	4e\	no-	no-	4cc\	no-	no-	2ryy	2ryy	2r	.	2r	.
8GG/	.	.	.	.	.	.	.	.	.	.	.	.	.	.	.	.	.	.	.	.	.
8G/J	.	8g\L	.	8d/	.	8b\)	.	.	.	8d\	-bis	-bis	8b\	-bis	-bis	.	.	.	.	.	.
8r	.	8g\J	.	8r	.	8r	.	.	.	8r	.	.	8r	.	.	.	.	.	.	.	.
=85	=85	=85	=85	=85	=85	=85	=85	=85	=85	=85	=85	=85	=85	=85	=85	=85	=85	=85	=85	=85	=85
8GG/L|<	.	8d\L|>	.	8b\L|>	.	8dd\L	.	2ryy	2ryy	8d\L	Ma-	Je-	8b\L	Ma-	Je-	2ryy	2ryy	2r	.	2r	.
.	.	.	.	.	.	16qqff/	.	.	.	.	.	.	16qqdd/	.	.	.	.	.	.	.	.
8GG/|<	.	8e\|>	.	8cc\|>	.	8ee\	.	.	.	8e\J	.	.	8cc\J	.	.	.	.	.	.	.	.
.	.	.	.	.	.	16qqdd/LL	.	.	.	.	.	.	16qqb/LL	.	.	.	.	.	.	.	.
.	.	.	.	.	.	16qqee/JJ	.	.	.	.	.	.	16qqcc/JJ	.	.	.	.	.	.	.	.
8GG/|<	.	8f\J|>	.	8dd\J|>	.	8ff\J	.	.	.	8f\	-ter	-su	8dd\	-ter	-su	.	.	.	.	.	.
8GG/J|<	.	8r	.	8r	.	8r	.	.	.	8r	.	.	8r	.	.	.	.	.	.	.	.
=86	=86	=86	=86	=86	=86	=86	=86	=86	=86	=86	=86	=86	=86	=86	=86	=86	=86	=86	=86	=86	=86
!LO:TX:t=P:problem:poczwórne staccato	!	!	!	!	!	!	!	!	!	!	!	!	!	!	!	!	!	!	!	!	!
8GG/L|<	.	(8d\L	.	(8b\L	.	8dd\L	.	2ryy	2ryy	8d\	Cre-	glo-	8b\	Cr(e)-	pi-	2ryy	2ryy	2r	.	2r	.
8GG/	.	8e\J	.	8cc\J)	.	8ee\J	.	.	.	8e\	-a-	-ri-	8cc\	-a-	.	.	.	.	.	.	.
8GG/	.	16g\LL	.	16ee\LL	.	16gg\LL	.	.	.	16g\LL	-to-	-o-	16ee\LL	-to-	-is-	.	.	.	.	.	.
.	.	16f\	.	(16dd\	.	(16ff\	.	.	.	16f\JJ	.	.	16dd\JJ	.	-si-	.	.	.	.	.	.
8GG/J	.	16e\	.	16cc\)	.	16ee\)	.	.	.	16e\LL	-ris	.	16cc\LL	-ris	.	.	.	.	.	.	.
.	.	16d\JJ)	.	16b\JJ	.	16dd\JJ	.	.	.	16d\JJ	.	.	16b\JJ	.	-me	.	.	.	.	.	.
=87	=87	=87	=87	=87	=87	=87	=87	=87	=87	=87	=87	=87	=87	=87	=87	=87	=87	=87	=87	=87	=87
!LO:TX:t=P:problem:poczwórne staccato	!	!	!	!	!	!	!	!	!	!	!	!	!	!	!	!	!	!	!	!	!
8GG/L|<	.	8e\L|>	.	8cc\L|>	.	8ee\L	.	2ryy	2ryy	8e\L	Ma-	-sis-	8cc\L	Ma-	.	2ryy	2ryy	2r	.	2r	.
.	.	.	.	.	.	16qqgg/	.	.	.	.	.	.	16qqee/	.	.	.	.	.	.	.	.
8GG/	.	8f\|>	.	8dd\|>	.	8ff\	.	.	.	8f\J	.	-si-	8dd\J	.	.	.	.	.	.	.	.
.	.	.	.	.	.	16qqee/LL	.	.	.	.	.	.	16qqcc/LL	.	.	.	.	.	.	.	.
.	.	.	.	.	.	16qqff/JJ	.	.	.	.	.	.	16qqdd/JJ	.	.	.	.	.	.	.	.
8GG/	.	8g\J|>	.	8ee\J|>	.	8gg\J	.	.	.	8g\	-ter	-me	8ee\	-ter	.	.	.	.	.	.	.
8GG/J	.	8r	.	8r	.	8r	.	.	.	8r	.	.	8r	.	.	.	.	.	.	.	.
=88	=88	=88	=88	=88	=88	=88	=88	=88	=88	=88	=88	=88	=88	=88	=88	=88	=88	=88	=88	=88	=88
!LO:TX:t=P:problem:poczwórne staccato	!	!	!	!	!	!	!	!	!	!	!	!	!	!	!	!	!	!	!	!	!
8GG/L|<	.	(8.g\L	.	8.ee\L	.	8.gg\L	.	2ryy	2ryy	8.g\	Sal-	mi-	8.ee\	Sal-	mi-	2ryy	2ryy	2r	.	2r	.
8GG/	.	.	.	.	.	.	.	.	.	.	.	.	.	.	.	.	.	.	.	.	.
.	.	16e\Jk	.	16cc\Jk	.	16ee\Jk	.	.	.	16e\	-va-	-se-	16cc\	-va-	-se-	.	.	.	.	.	.
8GG/	.	16a\LL	.	(16ff\LL	.	16aa\LL	.	.	.	16a\LL	-to-	-re-	16ff\LL	-to-	-re-	.	.	.	.	.	.
.	.	16g\	.	16ee\	.	(16gg\	.	.	.	16g\JJ	.	.	16ee\JJ	.	.	.	.	.	.	.	.
8GG/J	.	16f\	.	16dd\)	.	16ff\)	.	.	.	16f\LL	-ris	-re	16dd\LL	-ris	-re	.	.	.	.	.	.
.	.	16e\JJ)	.	16cc#X\JJ	.	16ee\JJ	.	.	.	16e\JJ	.	.	16cc#X\JJ	.	.	.	.	.	.	.	.
=89	=89	=89	=89	=89	=89	=89	=89	=89	=89	=89	=89	=89	=89	=89	=89	=89	=89	=89	=89	=89	=89
!LO:TX:t=P:problem:poczwórne staccato	!	!	!	!	!	!	!	!	!	!	!	!	!	!	!	!	!	!	!	!	!
8GG/L|<	.	8f\L	.	8dd\L	.	8ff\L	.	2ryy	2ryy	8f\L	o-	no-	8dd\L	o-	no-	2ryy	2ryy	2r	.	2r	.
!	!	!	!	!	!	!LO:TX:t=P:problem:klamra łukowa	!	!	!	!	!	!	!	!	!	!	!	!	!	!	!
8GG/	.	16g\L	.	16ee\L	.	24gg\L	.	.	.	16g\L	.	.	16ee\L	.	.	.	.	.	.	.	.
.	.	.	.	.	.	24ff\	.	.	.	.	.	.	.	.	.	.	.	.	.	.	.
.	.	16e\JJ	.	16cc#X\JJ	.	.	.	.	.	16e\JJ	.	.	16cc#X\JJ	.	.	.	.	.	.	.	.
.	.	.	.	.	.	24ee\JJ	.	.	.	.	.	.	.	.	.	.	.	.	.	.	.
8GG/	.	8f\	.	8dd\	.	8ff\	.	.	.	8f\	-ra	-bis	8dd\	-ra	-bis	.	.	.	.	.	.
!	!	!	!	!	!	!	!	!	!	!	!	!	!LO:N:vis=8	!	!	!	!	!	!	!	!
8GG/J	.	16r	.	16r	.	16r	.	.	.	16r	.	.	16r	.	.	.	.	.	.	.	.
!	!	!	!	!	!	!	!	!	!	!	!	!	!LO:N:vis=16	!	!	!	!	!	!	!	!
.	.	(32d\LLL	.	(32b\LLL	.	(32dd\LLL	.	.	.	32b\LLL	o-	no-	32dd\LLL	o-	Je-	.	.	.	.	.	.
!	!	!	!	!	!	!	!	!	!	!	!	!	!LO:N:vis=16	!	!	!	!	!	!	!	!
.	.	32e\JJJ)	.	32ccn\JJJ)	.	32ee\JJJ)	.	.	.	32cc\JJJ	.	.	32ee\JJJ	.	.	.	.	.	.	.	.
*Xtremolo	*	*	*	*	*	*	*	*	*	*	*	*	*	*	*	*	*	*	*	*	*
=90	=90	=90	=90	=90	=90	=90	=90	=90	=90	=90	=90	=90	=90	=90	=90	=90	=90	=90	=90	=90	=90
4GG/|<	.	16f\LL|>	.	16dd\LL|>	.	16ff'\LL	.	2ryy	2ryy	16dd\LL	-ra	.	16ff\LL	-ra	-su	2ryy	2ryy	2r	.	2r	.
.	.	16e\|>	.	16cc\|>	.	16ee'\	.	.	.	16cc\JJ	.	.	16ee\JJ	.	.	.	.	.	.	.	.
.	.	16d\|>	.	16b\|>	.	16dd'\	.	.	.	(16b\LL	pro	.	16dd\LL	pro	mi-	.	.	.	.	.	.
.	.	16c\JJ|>	.	16a\JJ|>	.	16cc'\JJ	.	.	.	16a\JJ	.	.	16cc\JJ	.	.	.	.	.	.	.	.
8r	.	16B/LL|<	.	16g/LL|<	.	16b'\LL	.	.	.	16g\LL	no-	.	16b\LL	no-	-ri-	.	.	.	.	.	.
.	.	16A/|<	.	16f/|<	.	16a'\	.	.	.	16f\JJ)	.	.	16a\	.	.	.	.	.	.	.	.
8GG/	.	16G/|<	.	16e/|<	.	16g'\	.	.	.	16e\LL	-bis	.	16g\	.	-fi-	.	.	.	.	.	.
.	.	16F/JJ|<	.	16d/JJ|<	.	16f'\JJ	.	.	.	16d\JJ	.	.	16f\JJ	.	.	.	.	.	.	.	.
=91	=91	=91	=91	=91	=91	=91	=91	=91	=91	=91	=91	=91	=91	=91	=91	=91	=91	=91	=91	=91	=91
!	!	!	!	!	!	!LO:TX:t=P:problem:mixed beam	!	!	!	!	!	!	!	!	!	!	!	!	!	!	!
4C/	.	8D/L	.	8c/L	.	8e\L	.	2ryy	2ryy	8c,\	.	-bis.	8e/	-bis	-ce	2ryy	2ryy	2r	.	2r	.
.	.	8G/	.	8e/	.	(8ccn\	.	.	.	8e\L	Ma-	Je-	8ccn\L	Ma-	mi-	.	.	.	.	.	.
8r	.	8c/	.	8g/	.	8b-X\)	.	.	.	8g\J	.	-su	8b-X\J	.	.	.	.	.	.	.	.
8B-X\	.	8B-X/J	.	8e/J	.	8g#X\J	.	.	.	8e\	-ter	pi-	8g#X\	-ter	-se-	.	.	.	.	.	.
=92	=92	=92	=92	=92	=92	=92	=92	=92	=92	=92	=92	=92	=92	=92	=92	=92	=92	=92	=92	=92	=92
!	!	!LO:TX:t=P:problem:mixed beam	!	!	!	!	!	!	!	!	!	!	!	!	!	!	!	!	!	!	!
8A\L	.	8A\L	.	8f/L	.	(8a\L	.	2ryy	2ryy	8f\	Cre-	-is-	8a\	Cr(e)-	-re-	2ryy	2ryy	2r	.	2r	.
8G\	.	8g\	.	8e/	.	8cc#X\	.	.	.	8e\	-a-	-si-	8cc#X\	-a-	-re	.	.	.	.	.	.
8F\	.	8f\	.	8f/	.	8dd\)	.	.	.	8f\	-to-	-me	8dd\	-to-	no-	.	.	.	.	.	.
8C#X\J	.	8c#X\J	.	8g/J	.	8ee\J	.	.	.	8g\	-ris	mi-	8ee\	-ris	-bis	.	.	.	.	.	.
=93	=93	=93	=93	=93	=93	=93	=93	=93	=93	=93	=93	=93	=93	=93	=93	=93	=93	=93	=93	=93	=93
4D\	.	4d\	.	8.a/L	.	8.ff\L	.	2ryy	2ryy	8.a\L	o-	-se-	8.ff\L	o-	mi-	2ryy	2ryy	2r	.	2r	.
.	.	.	.	16f/Jk	.	16dd\Jk	.	.	.	16f\L	.	.	16dd\L	.	-se-	.	.	.	.	.	.
8r	.	4r	.	16a/LL	.	(16ff\LL	.	.	.	16a\	.	.	16ff\	.	.	.	.	.	.	.	.
.	.	.	.	(16f/	.	16dd\)	.	.	.	16f\JJ	.	.	16dd\JJ	.	.	.	.	.	.	.	.
8F\	.	.	.	16a/	.	(16ff\	.	.	.	16a\LL	-ra	.	16ff\LL	-ra	-re-	.	.	.	.	.	.
.	.	.	.	16f/JJ)	.	16dd\JJ)	.	.	.	16f\JJ	.	.	16dd\JJ	.	.	.	.	.	.	.	.
=94	=94	=94	=94	=94	=94	=94	=94	=94	=94	=94	=94	=94	=94	=94	=94	=94	=94	=94	=94	=94	=94
!LO:TX:t=P:problem:mixed beam	!	!	!	!	!	!	!	!	!	!	!	!	!	!	!	!	!	!	!	!	!
8G/L	.	4g\	.	8.e/L	.	(8.ccn\L	.	2ryy	2ryy	8.e\L	pro	-re-	8cc#X\L	pro	.	2ryy	2ryy	2r	.	2r	.
8G/	.	.	.	.	.	.	.	.	.	.	.	.	16cc#\L	.	.	.	.	.	.	.	.
.	.	.	.	16g/Jk	.	16ee\Jk)	.	.	.	16g\Jk	.	.	16ee\JJ	.	.	.	.	.	.	.	.
8GG/	.	8g\L	.	16g/LL	.	(16ee\LL	.	.	.	16g\LL	no-	-re	16ee\LL	no-	.	.	.	.	.	.	.
.	.	.	.	16f/	.	16dd\	.	.	.	16f\JJ	.	.	16dd\JJ	.	.	.	.	.	.	.	.
8GG/J	.	8g\J	.	16e/	.	16cc\	.	.	.	16e\LL	-bis	.	16cc#\LL	-bis	.	.	.	.	.	.	.
.	.	.	.	16d/JJ	.	16b\JJ)	.	.	.	16d\JJ	.	.	16b\JJ	.	.	.	.	.	.	.	.
=95	=95	=95	=95	=95	=95	=95	=95	=95	=95	=95	=95	=95	=95	=95	=95	=95	=95	=95	=95	=95	=95
!	!	!LO:TX:a:t=dolce	!	!LO:TX:b:t=Dolce	!	!LO:TX:b:t=Dolce	!	!	!	!LO:TX:a:t=dolce	!	!	!LO:TX:a:t=dolce	!	!	!	!	!	!	!	!
8r	.	(32e\LLL	.	(32cc\LLL	.	32ee\LLL	.	2ryy	2ryy	32e\LLL	Ma-	no-	32cc\LLL	Ma-	.	2ryy	2ryy	2r	.	2r	.
.	.	32f\	.	32dd\	.	(32ff\	.	.	.	32f\	.	.	32dd\	.	.	.	.	.	.	.	.
.	.	32e\	.	32cc\	.	32ee\)	.	.	.	32e\	.	.	32cc\	.	.	.	.	.	.	.	.
.	.	32f\JJJ)	.	32dd\JJJ)	.	32ff\JJJ	.	.	.	32f\JJ	.	.	32dd\JJ	.	.	.	.	.	.	.	.
8C/L	.	16g\LL|>	.	16ee\LL	.	16gg\LL|>	.	.	.	8g\J	.	.	8ee\J	.	.	.	.	.	.	.	.
.	.	16g\JJ|>	.	16ee\JJ	.	16gg\JJ|>	.	.	.	.	.	.	.	.	.	.	.	.	.	.	.
8E/	.	8g\|>	.	8ee\	.	8gg\	.	.	.	8g\	-ter	-bis	8ee\	-ter	-re	.	.	.	.	.	.
!	!	!	!	!LO:TX:t=P:problem:wykreslone 4 takty	!	!	!	!	!	!	!	!	!	!	!	!	!	!	!	!	!
8C/J	.	8r	.	8r	.	8r	.	.	.	8r	.	.	8r	.	.	.	.	.	.	.	.
=96	=96	=96	=96	=96	=96	=96	=96	=96	=96	=96	=96	=96	=96	=96	=96	=96	=96	=96	=96	=96	=96
8r	.	(32a\LLL	.	(32ff\LLL	.	(32aa\LLL	.	2ryy	2ryy	32a\LLL	Sal-	Je-	32ff\LLL	Sal-	Je-	2ryy	2ryy	2r	.	2r	.
.	.	32g\	.	32ee\	.	32gg\	.	.	.	32g\	.	.	32ee\	.	.	.	.	.	.	.	.
.	.	32a\	.	32ff\	.	32aa\	.	.	.	32a\	.	.	32ff\	.	.	.	.	.	.	.	.
.	.	32b\JJJ)	.	32gg\JJJ)	.	32bb\JJJ)	.	.	.	32b\J	.	.	32gg\J	.	.	.	.	.	.	.	.
!	!	!	!	!	!	!	!	!	!	!LO:N:vis=8	!	!	!	!	!	!	!	!	!	!	!
8F\L	.	16cc\LL|>	.	16aa\LL	.	16ccc\LL|>	.	.	.	16cc\JJ	.	.	16aa\JJ	.	.	.	.	.	.	.	.
.	.	16cc\JJ|>	.	16aa\JJ	.	16ccc\JJ|>	.	.	.	16cc\	-va-	-su	16aa\	-va-	.	.	.	.	.	.	.
8A\	.	8.cc\L	.	8.aa\L	.	8.ccc\L	.	.	.	8.cc\	-to-	mi-	8.aa\	-to-	.	.	.	.	.	.	.
8F\J	.	.	.	.	.	.	.	.	.	.	.	.	.	.	.	.	.	.	.	.	.
.	.	16a\Jk	.	16ff\Jk	.	16aa\Jk	.	.	.	16a\	-ris	.	16ff\	-ris	-su	.	.	.	.	.	.
=97	=97	=97	=97	=97	=97	=97	=97	=97	=97	=97	=97	=97	=97	=97	=97	=97	=97	=97	=97	=97	=97
4G\	.	(16a\LL	.	(16ff\LL	.	(16aa\LL	.	2ryy	2ryy	16a\LL	o-	-ri-	16ff\LL	o-	cha-	2ryy	2ryy	2r	.	2r	.
.	.	16g\	.	16ee\	.	16gg\	.	.	.	16g\JJ	.	.	16ee\JJ	.	.	.	.	.	.	.	.
.	.	16f\	.	16dd\	.	16ff\	.	.	.	16f\	-ra	-fi-	16dd\	-ra	.	.	.	.	.	.	.
.	.	16e\JJ)	.	16cc\JJ)	.	16ee\JJ)	.	.	.	16e\	pro	-ce	16cc\	pro	.	.	.	.	.	.	.
4GG/	.	(16g\LL	.	16ee\LL	.	(16gg\LL	.	.	.	16g\LL	no-	cha-	16ee\LL	no-	.	.	.	.	.	.	.
.	.	16f\	.	(16dd\	.	16ff\	.	.	.	16f\JJ	.	.	16dd\JJ	.	.	.	.	.	.	.	.
.	.	16e\	.	16cc\)	.	16ee\	.	.	.	16e\LL	-bis	.	16cc\LL	-bis	-ris-	.	.	.	.	.	.
.	.	16d\JJ)	.	16b\JJ	.	16dd\JJ)	.	.	.	16d\JJ	.	.	16b\JJ	.	.	.	.	.	.	.	.
=98	=98	=98	=98	=98	=98	=98	=98	=98	=98	=98	=98	=98	=98	=98	=98	=98	=98	=98	=98	=98	=98
8r	.	(32e\LLL	.	(32cc\LLL	.	(32ee\LLL	.	2ryy	2ryy	32e\LLL	Ma-	-ris-	32cc\LLL	Ma-	-si-	2ryy	2ryy	2r	.	2r	.
.	.	32f\	.	32dd\	.	32ff\	.	.	.	32f\	.	.	32dd\	.	.	.	.	.	.	.	.
.	.	32e\	.	32cc\)	.	32ee\	.	.	.	32e\	.	.	32cc\	.	.	.	.	.	.	.	.
.	.	32f\JJJ)	.	32dd\JJJ	.	32ff\JJJ)	.	.	.	32f\JJ	.	.	32dd\JJ	.	.	.	.	.	.	.	.
8C/L	.	16g\LL|>	.	16ee\LL|>	.	16gg'\LL	.	.	.	8g\J	.	-si-	8ee\J	.	.	.	.	.	.	.	.
.	.	16g\JJ|>	.	16ee\JJ|>	.	16gg'\JJ	.	.	.	.	.	.	.	.	.	.	.	.	.	.	.
8E/	.	8g\	.	8ee\	.	8gg\	.	.	.	8g\	-ter	-me	8ee\	-ter	-me	.	.	.	.	.	.
8C/J	.	8r	.	8r	.	8r	.	.	.	8r	.	.	8r	.	.	.	.	.	.	.	.
=99	=99	=99	=99	=99	=99	=99	=99	=99	=99	=99	=99	=99	=99	=99	=99	=99	=99	=99	=99	=99	=99
8r	.	(32a\LLL	.	(32ff\LLL	.	(32aa\LLL	.	2ryy	2ryy	32a\LLL	Cre-	mi-	32ff\LLL	Cre-	mi-	2ryy	2ryy	2r	.	2r	.
.	.	32g\	.	32ee\	.	32gg\	.	.	.	32g\	.	.	32ee\	.	.	.	.	.	.	.	.
.	.	32a\	.	32ff\	.	32aa\	.	.	.	32a\	.	.	32ff\	.	.	.	.	.	.	.	.
.	.	32b\JJJ)	.	32gg\JJJ)	.	32bb\JJJ)	.	.	.	32b\J	.	.	32gg\J	.	.	.	.	.	.	.	.
!	!	!	!	!	!	!	!	!	!	!LO:N:vis=8	!	!	!	!	!	!	!	!	!	!	!
8F\L	.	16cc\LL|>	.	16aa'\LL	.	16ccc\LL|>	.	.	.	16cc\JJ	.	.	16aa\JJ	.	.	.	.	.	.	.	.
.	.	16cc\JJ|>	.	16aa'\JJ	.	16ccc\JJ|>	.	.	.	16cc\	-a-	-se-	16aa\	-a-	-se-	.	.	.	.	.	.
8A\	.	8.cc\L	.	8.aa\L	.	8.ccc\L	.	.	.	8.cc\	-to-	-re-	8.aa\	-to-	-re-	.	.	.	.	.	.
8F\J	.	.	.	.	.	.	.	.	.	.	.	.	.	.	.	.	.	.	.	.	.
.	.	16a\Jk	.	16ff\Jk	.	16aa\Jk	.	.	.	16a\	-ris	-re	16ff\	-ris	-re	.	.	.	.	.	.
=100	=100	=100	=100	=100	=100	=100	=100	=100	=100	=100	=100	=100	=100	=100	=100	=100	=100	=100	=100	=100	=100
8G\	.	(16g\LL	.	(16ee\LL	.	(16gg\LL	.	2ryy	2ryy	16g\LL	o-	mi-	16ee\LL	o-	mi-	2ryy	2ryy	2r	.	2r	.
.	.	16e\)	.	16cc\)	.	16ee\)	.	.	.	16e\JJ	.	.	16cc\JJ	.	.	.	.	.	.	.	.
8r	.	16g\|>	.	16ee'\	.	16gg\|>	.	.	.	16g\	-ra	-se-	16ee\	-ra	-se-	.	.	.	.	.	.
.	.	16g\JJ|>	.	16ee'\JJ	.	16gg\JJ|>	.	.	.	16g\	pro	.	16ee\	pro	.	.	.	.	.	.	.
8GG/	.	(16f\LL	.	(16dd\LL	.	(16ff\LL	.	.	.	16f\LL	no-	-re-	16dd\LL	no-	-re-	.	.	.	.	.	.
.	.	16d\)	.	16b\)	.	16dd\)	.	.	.	16d\JJ	.	.	16b\JJ	.	.	.	.	.	.	.	.
8r	.	16f\|>	.	16dd'\	.	16ff\|>	.	.	.	8f\	-bis	-re	8dd\	-bis	-re	.	.	.	.	.	.
.	.	16f\JJ|>	.	16dd'\JJ	.	16ff\JJ|>	.	.	.	.	.	.	.	.	.	.	.	.	.	.	.
=101	=101	=101	=101	=101	=101	=101	=101	=101	=101	=101	=101	=101	=101	=101	=101	=101	=101	=101	=101	=101	=101
8C/	.	8g\	.	16cc\LL|>	.	(32ee\LLL	.	2ryy	2ryy	32e\LLL	Ma-	no-	32cc\LLL	Ma-	no-	2ryy	2ryy	2r	.	2r	.
.	.	.	.	.	.	32dd\	.	.	.	32g\	.	.	32dd\	.	.	.	.	.	.	.	.
.	.	.	.	(32cc\L	.	32ee\	.	.	.	(32cc\	.	.	(32ee\	.	.	.	.	.	.	.	.
.	.	.	.	32dd\J)	.	32ff\JJJ)	.	.	.	32dd\JJJ	.	.	32ff\JJJ	.	.	.	.	.	.	.	.
8r	.	8r	.	16ee\|>	.	16gg\LL|>	.	.	.	16ee\LL	.	.	16gg\LL	.	.	.	.	.	.	.	.
.	.	.	.	16dd\JJ|>	.	16ff\JJ|>	.	.	.	16dd\JJ	.	.	16ff\JJ	.	.	.	.	.	.	.	.
8r	.	8r	.	16cc\LL|>	.	16ee\LL|>	.	.	.	16cc\LL	.	.	16ee\LL	.	.	.	.	.	.	.	.
.	.	.	.	16b-X\|>	.	16dd\|>	.	.	.	16b-X\JJ)	.	.	16dd\JJ)	.	.	.	.	.	.	.	.
8E\	.	8cc\	.	16a\|>	.	16cc\|>	.	.	.	16a\LL	-ter	.	16cc\LL	-ter	.	.	.	.	.	.	.
.	.	.	.	16g\JJ|>	.	16b-X\JJ|>	.	.	.	16g\JJ	.	.	16b-X\JJ	.	.	.	.	.	.	.	.
=102	=102	=102	=102	=102	=102	=102	=102	=102	=102	=102	=102	=102	=102	=102	=102	=102	=102	=102	=102	=102	=102
16F\LL	.	8cc\	.	16f/LL|<	.	16a\LL|>	.	2ryy	2ryy	16f\LL	Sal-	.	16a\LL	Sal-	.	2ryy	2ryy	2r	.	2r	.
16G\	.	.	.	16e/|<	.	16cc#X\|>	.	.	.	16e\JJ	.	.	16cc#X\JJ	.	.	.	.	.	.	.	.
16F\	.	8r	.	16f/|<	.	16dd\|>	.	.	.	16f\LL	-va-	.	16dd\LL	-va-	.	.	.	.	.	.	.
16E\JJ	.	.	.	16cc#X/JJ|<	.	16ee\JJ|>	.	.	.	16c#X\JJ	.	.	16ee\JJ	.	.	.	.	.	.	.	.
!	!	!	!	!	!	!	!	!	!	!	!	!	!LO:TX:t=P:problem:klamra łukowa	!	!	!	!	!	!	!	!
8D\L	.	8r	.	16dd\LL|>	.	16ff\LL|>	.	.	.	16d\LL	-to-	.	24ff\LL	-to-	.	.	.	.	.	.	.
.	.	.	.	.	.	.	.	.	.	.	.	.	24gg\	.	.	.	.	.	.	.	.
.	.	.	.	16ee\|>	.	16gg\|>	.	.	.	16e\JJ	.	.	.	.	.	.	.	.	.	.	.
.	.	.	.	.	.	.	.	.	.	.	.	.	24aa\JJ	.	.	.	.	.	.	.	.
8F\J	.	8a\	.	16ff\|>	.	16aa\|>	.	.	.	16f\LL	-ris	.	8ff\	-ris	.	.	.	.	.	.	.
.	.	.	.	16dd\JJ|>	.	16ff\JJ|>	.	.	.	16d\JJ	.	.	.	.	.	.	.	.	.	.	.
=103	=103	=103	=103	=103	=103	=103	=103	=103	=103	=103	=103	=103	=103	=103	=103	=103	=103	=103	=103	=103	=103
!LO:TX:t=P:problem:mixed beam	!	!	!	!	!	!	!	!	!	!	!	!	!	!	!	!	!	!	!	!	!
8G/L	.	8g\	.	8.g/L	.	8.ee\L	.	2ryy	2ryy	4g\	o-	.	4ee\	o-	.	2ryy	2ryy	2r	.	2r	.
8G/	.	4g\	.	.	.	.	.	.	.	.	.	.	.	.	.	.	.	.	.	.	.
.	.	.	.	16g/Jk	.	16ee\Jk	.	.	.	.	.	.	.	.	.	.	.	.	.	.	.
8GG/	.	.	.	16g/LL	.	16ee\LL	.	.	.	16g\LL	-ra	.	16ee\LL	-ra	.	.	.	.	.	.	.
.	.	.	.	(16f/	.	(16dd\	.	.	.	16f\JJ	.	.	16dd\JJ	.	.	.	.	.	.	.	.
8GG/J	.	8g\	.	16e/)	.	16cc\)	.	.	.	16e\LL	pro	.	16cc\LL	pro	.	.	.	.	.	.	.
.	.	.	.	16d/JJ	.	16b\JJ	.	.	.	16d\JJ	.	.	16b\JJ	.	.	.	.	.	.	.	.
=104	=104	=104	=104	=104	=104	=104	=104	=104	=104	=104	=104	=104	=104	=104	=104	=104	=104	=104	=104	=104	=104
!LO:TX:t=P:problem:mixed beam	!	!	!	!	!	!	!	!	!	!	!	!	!	!	!	!	!	!	!	!	!
8GG/L	.	4f\	.	4d/	.	(4b\	.	2ryy	2ryy	4d\	no-	.	4b\	no-	.	2ryy	2ryy	2r	.	2r	.
8G/J	.	.	.	.	.	.	.	.	.	.	.	.	.	.	.	.	.	.	.	.	.
8C/	.	8g\	.	8e/	.	8cc\L)	.	.	.	8e\	-bis	-bis.	8cc\	-bis	-bis.	.	.	.	.	.	.
8r	.	8r	.	8r	.	8gg'\J	f	.	.	8r	.	.	8r	.	.	.	.	.	.	.	.
=105	=105	=105	=105	=105	=105	=105	=105	=105	=105	=105	=105	=105	=105	=105	=105	=105	=105	=105	=105	=105	=105
!LO:TX:t=P:problem:mixed beam	!	!	!	!	!	!	!	!	!	!	!	!	!	!	!	!	!	!	!	!	!
4GG/ 4G|<	.	(4B/	f	(4d/	f	(16ff\LL	.	2ryy	2ryy	2r	.	.	2r	.	.	2ryy	2ryy	4b\	f	4dd\	f
.	.	.	.	.	.	16dd\JJ)	.	.	.	.	.	.	.	.	.	.	.	.	.	.	.
.	.	.	.	.	.	16r	.	.	.	.	.	.	.	.	.	.	.	.	.	.	.
.	.	.	.	.	.	16ff\|>	.	.	.	.	.	.	.	.	.	.	.	.	.	.	.
4r	.	4c/	.	4e/	.	(16ee\LL	.	.	.	.	.	.	.	.	.	.	.	4cc\	.	4ee\	.
.	.	.	.	.	.	16cc\JJ)	.	.	.	.	.	.	.	.	.	.	.	.	.	.	.
.	.	.	.	.	.	16r	.	.	.	.	.	.	.	.	.	.	.	.	.	.	.
.	.	.	.	.	.	16ee\	.	.	.	.	.	.	.	.	.	.	.	.	.	.	.
=106	=106	=106	=106	=106	=106	=106	=106	=106	=106	=106	=106	=106	=106	=106	=106	=106	=106	=106	=106	=106	=106
!LO:TX:t=P:problem:mixed beam	!	!	!	!	!	!	!	!	!	!	!	!	!	!	!	!	!	!	!	!	!
4GG/	.	4d/	.	4f/	.	(16dd\LL	.	2ryy	2ryy	2r	.	.	2r	.	.	2ryy	2ryy	4dd\	.	4ffn\	.
.	.	.	.	.	.	16b\)	.	.	.	.	.	.	.	.	.	.	.	.	.	.	.
.	.	.	.	.	.	16g\|>	.	.	.	.	.	.	.	.	.	.	.	.	.	.	.
.	.	.	.	.	.	16g\JJ|>	.	.	.	.	.	.	.	.	.	.	.	.	.	.	.
!LO:TX:t=P:problem:mixed beam	!	!	!	!	!	!	!	!	!	!	!	!	!	!	!	!	!	!	!	!	!
4CC/	.	4c/)	.	4e/)	.	(32cc\LLL	.	.	.	.	.	.	.	.	.	.	.	4cc\	.	4ee\	.
.	.	.	.	.	.	32dd\	.	.	.	.	.	.	.	.	.	.	.	.	.	.	.
.	.	.	.	.	.	32ee\	.	.	.	.	.	.	.	.	.	.	.	.	.	.	.
.	.	.	.	.	.	32ff\JJJ)	.	.	.	.	.	.	.	.	.	.	.	.	.	.	.
.	.	.	.	.	.	16gg\LL|>	.	.	.	.	.	.	.	.	.	.	.	.	.	.	.
.	.	.	.	.	.	16gg\JJ|>	.	.	.	.	.	.	.	.	.	.	.	.	.	.	.
=107	=107	=107	=107	=107	=107	=107	=107	=107	=107	=107	=107	=107	=107	=107	=107	=107	=107	=107	=107	=107	=107
!LO:TX:t=P:problem:mixed beam	!	!	!	!	!	!	!	!	!	!	!	!	!	!	!	!	!	!	!	!	!
4GG/	p	4B/	p	4d/	p	(16ff\LL	p	2ryy	2ryy	2r	.	.	2r	.	.	2ryy	2ryy	4b\	p	4dd\	p
.	.	.	.	.	.	16dd\JJ)	.	.	.	.	.	.	.	.	.	.	.	.	.	.	.
.	.	.	.	.	.	16r	.	.	.	.	.	.	.	.	.	.	.	.	.	.	.
.	.	.	.	.	.	16ff\|>	.	.	.	.	.	.	.	.	.	.	.	.	.	.	.
!	!	!	!	!LO:TX:t=P:problem:mixed beam	!	!	!	!	!	!	!	!	!	!	!	!	!	!	!	!	!
8r	.	8.c\L	.	8.e/L	.	(16ee\LL	.	.	.	.	.	.	.	.	.	.	.	4cc\	.	4ee\	.
.	.	.	.	.	.	16cc\JJ)	.	.	.	.	.	.	.	.	.	.	.	.	.	.	.
8C/	.	.	.	.	.	16r	.	.	.	.	.	.	.	.	.	.	.	.	.	.	.
.	.	16e\Jk	.	16cc/Jk	.	16ee\|>	.	.	.	.	.	.	.	.	.	.	.	.	.	.	.
=108	=108	=108	=108	=108	=108	=108	=108	=108	=108	=108	=108	=108	=108	=108	=108	=108	=108	=108	=108	=108	=108
!	!	!LO:TX:b:t=dolce	!	!	!	!	!	!	!	!	!	!	!	!	!	!	!	!	!	!	!
!LO:TX:t=P:problem:mixed beam	!	!	!	!	!	!	!	!	!	!	!	!	!	!	!	!	!	!	!	!	!
8G/L	f	8g\L|>	p	8cc\L	.	8ee\L	.	2ryy	2ryy	2r	.	.	2r	.	.	2ryy	2ryy	8cc\L	f	8ee\L	f
8GG/J	.	8g\J|>	.	8b\J	.	8dd\J	.	.	.	.	.	.	.	.	.	.	.	8b\J	.	8dd\J	.
!	!	!	!	!LO:TX:b:t=Dolce	!	!	!	!	!	!	!	!	!	!	!	!	!	!	!	!	!
4r	.	8e\L	.	(8cc\L	.	(8ee\L	.	.	.	.	.	.	.	.	.	.	.	4r	.	4r	.
.	.	8f\J	.	8dd\J)	.	8ff\J)	.	.	.	.	.	.	.	.	.	.	.	.	.	.	.
=109	=109	=109	=109	=109	=109	=109	=109	=109	=109	=109	=109	=109	=109	=109	=109	=109	=109	=109	=109	=109	=109
!LO:TX:a:t=4	!	!	!	!	!	!LO:TX:b:t=Dolce	!	!	!	!	!	!	!	!	!	!	!	!LO:TX:a:t=3	!	!LO:TX:a:t=3	!
2r	.	(8.g\L	.	8.ee\L	.	(8.gg\L	.	2ryy	2ryy	2r	.	.	2r	.	.	2ryy	2ryy	2r	.	2r	.
.	.	16a\K	.	(16ff\K	.	16aa\K	.	.	.	.	.	.	.	.	.	.	.	.	.	.	.
.	.	8g\	.	8ee\)	.	8gg\	.	.	.	.	.	.	.	.	.	.	.	.	.	.	.
.	.	8f\J)	.	8ee\J	.	8gg\J)	.	.	.	.	.	.	.	.	.	.	.	.	.	.	.
=110	=110	=110	=110	=110	=110	=110	=110	=110	=110	=110	=110	=110	=110	=110	=110	=110	=110	=110	=110	=110	=110
2r	.	(8.a\L	.	8.ff\L	.	(8.aa\L	.	2ryy	2ryy	2r	.	.	2r	.	.	2ryy	2ryy	2r	.	2r	.
.	.	16b\K	.	(16gg\K	.	16bb\K	.	.	.	.	.	.	.	.	.	.	.	.	.	.	.
.	.	8cc\	.	8aa\)	.	8ccc\	.	.	.	.	.	.	.	.	.	.	.	.	.	.	.
.	.	8a\J)	.	8ff\J	.	8aa\J)	.	.	.	.	.	.	.	.	.	.	.	.	.	.	.
=111	=111	=111	=111	=111	=111	=111	=111	=111	=111	=111	=111	=111	=111	=111	=111	=111	=111	=111	=111	=111	=111
2r	.	8.g\L	.	8.ee\L	.	(8.gg\L	.	2ryy	2ryy	2r	.	.	2r	.	.	2ryy	2ryy	2r	.	2r	.
.	.	16e\Jk	.	16cc\Jk	.	16ee\Jk)	.	.	.	.	.	.	.	.	.	.	.	.	.	.	.
.	.	8.g\L	.	8.ee\L	.	(8.gg\L	.	.	.	.	.	.	.	.	.	.	.	.	.	.	.
.	.	16e\Jk	.	16cc\Jk	.	16ee\Jk)	.	.	.	.	.	.	.	.	.	.	.	.	.	.	.
=112	=112	=112	=112	=112	=112	=112	=112	=112	=112	=112	=112	=112	=112	=112	=112	=112	=112	=112	=112	=112	=112
2r	.	4g\	.	4ee\	.	4gg\	.	2ryy	2ryy	2r	.	.	2r	.	.	2ryy	2ryy	4r	.	4r	.
.	.	8r	.	8rg	.	8r	.	.	.	.	.	.	.	.	.	.	.	8r	.	8r	.
!	!	!	!	!	!	!	!	!	!	!	!	!	!	!	!	!	!	!LO:TX:a:t=dolce	!	!LO:TX:b:t=dolce	!
.	.	8e\	mf	8cc\	mf	8ee'\	.	.	.	.	.	.	.	.	.	.	.	8ccc\	.	8eee\	.
=113	=113	=113	=113	=113	=113	=113	=113	=113	=113	=113	=113	=113	=113	=113	=113	=113	=113	=113	=113	=113	=113
8r	.	(16g\LL	.	16ee\LL	.	(16gg\LL	mf	2ryy	2ryy	2r	.	.	2r	.	.	2ryy	2ryy	16eee\LL	.	(16ggg\LL	.
.	.	16f\JJ)	.	16dd\JJ	.	16ff\JJ)	.	.	.	.	.	.	.	.	.	.	.	16ddd\JJ	.	16fff\JJ)	.
!LO:TX:t=P:problem:mp=mezzpiano	!	!	!	!	!	!	!	!	!	!	!	!	!	!	!	!	!	!	!	!	!
8D/L	mp	4f\	.	4dd\	.	4ff\	.	.	.	.	.	.	.	.	.	.	.	4ddd\	.	4fff\	.
8BB/	.	.	.	.	.	.	.	.	.	.	.	.	.	.	.	.	.	.	.	.	.
8GG/J	.	8d\	.	8b\	.	8dd\	.	.	.	.	.	.	.	.	.	.	.	8bb\	.	8ddd\	.
=114	=114	=114	=114	=114	=114	=114	=114	=114	=114	=114	=114	=114	=114	=114	=114	=114	=114	=114	=114	=114	=114
8r	.	(16f\LL	.	16dd\LL	.	(16ff\LL	.	2ryy	2ryy	2r	.	.	2r	.	.	2ryy	2ryy	16ddd\LL	.	(16fff\LL	.
.	.	16e\JJ)	.	16cc\JJ	.	16ee\JJ)	.	.	.	.	.	.	.	.	.	.	.	16ccc\JJ	.	16eee\JJ)	.
8C\L	.	4e\	.	4cc\	.	4ee\	.	.	.	.	.	.	.	.	.	.	.	4ccc\	.	4eee\	.
8E\	.	.	.	.	.	.	.	.	.	.	.	.	.	.	.	.	.	.	.	.	.
8G\J	.	8f\	.	8dd\	.	8ff\	.	.	.	.	.	.	.	.	.	.	.	8ddd\	.	8fff\	.
=115	=115	=115	=115	=115	=115	=115	=115	=115	=115	=115	=115	=115	=115	=115	=115	=115	=115	=115	=115	=115	=115
!LO:TX:t=P:problem:mixed beam	!	!	!	!	!	!	!	!	!	!	!	!	!	!	!	!	!	!	!	!	!
8c\L	.	8g\L	.	8ee\L	.	8gg\L	.	2ryy	2ryy	2r	.	.	2r	.	.	2ryy	2ryy	8eee\	.	8ggg\	.
8C\J	.	(16cc\L	.	16aa\L	.	16ccc\L	.	.	.	.	.	.	.	.	.	.	.	8r	.	8r	.
.	.	16b\JJ	.	(16gg\JJ	.	16bb\JJ	.	.	.	.	.	.	.	.	.	.	.	.	.	.	.
8r	.	16a\LL	.	16ff\LL	.	(16aa\LL	.	.	.	.	.	.	.	.	.	.	.	4r	.	4r	.
.	.	16g\	.	16ee\	.	16gg\	.	.	.	.	.	.	.	.	.	.	.	.	.	.	.
8E\	f	16f\	.	16dd\)	.	16ff\	.	.	.	.	.	.	.	.	.	.	.	.	.	.	.
.	.	16e\JJ)	.	16cc\JJ	.	16ee\JJ)	.	.	.	.	.	.	.	.	.	.	.	.	.	.	.
=116	=116	=116	=116	=116	=116	=116	=116	=116	=116	=116	=116	=116	=116	=116	=116	=116	=116	=116	=116	=116	=116
!LO:TX:t=P:problem:mixed beam	!	!	!	!	!	!	!	!	!	!	!	!	!	!	!	!	!	!LO:N:vis=4	!	!	!
8F/L	.	8a\L	.	8a/L	f	8dd\L	.	2ryy	2ryy	2r	.	.	2r	.	.	2ryy	2ryy	8ff\L	f	8ddd\L	f
!	!	!	!	!LO:TX:t=P:problem:klamra łukowa	!	!LO:TX:t=P:problem:klamra łukowa	!	!	!	!	!	!	!	!	!	!	!	!LO:TX:t=P:problem:klamra łukowa	!	!LO:TX:t=P:problem:klamra łukowa	!
.	.	.	.	.	.	8qqgg/	.	.	.	.	.	.	.	.	.	.	.	.	.	.	.
8D/	.	8f\	.	24a/L	.	24ff\L	.	.	.	.	.	.	.	.	.	.	.	24aa\L	.	24fff\L	.
.	.	.	.	24g/	.	24ee\	.	.	.	.	.	.	.	.	.	.	.	24gg\	.	24eee\	.
.	.	.	.	24f/JJ	.	24dd\JJ	.	.	.	.	.	.	.	.	.	.	.	24ff\JJ	.	24ddd\JJ	.
8G/	.	8g\	.	8e/L	.	8cc\L	.	.	.	.	.	.	.	.	.	.	.	8ee\L	.	8ccc\L	.
8GG/J	.	8g\J	.	8d/J	.	8b\J	.	.	.	.	.	.	.	.	.	.	.	8dd\J	.	8bb\J	.
=117	=117	=117	=117	=117	=117	=117	=117	=117	=117	=117	=117	=117	=117	=117	=117	=117	=117	=117	=117	=117	=117
8C/	p	8g\	p	16e/LL	p	(16cc\LL	p	2ryy	2ryy	2r	.	.	2r	.	.	2ryy	2ryy	(16ee\LL	pp	(16ccc\LL	pp
.	.	.	.	(16g/	.	16ee\)	.	.	.	.	.	.	.	.	.	.	.	16gg\)	.	16eee\)	.
8r	.	8r	.	16f/)	.	(16dd\	.	.	.	.	.	.	.	.	.	.	.	(16ff\	.	(16ddd\	.
.	.	.	.	16g/JJ	.	16ee\JJ)	.	.	.	.	.	.	.	.	.	.	.	16gg\JJ)	.	16eee\JJ)	.
8C/	.	8g\	.	16e/LL	.	(16cc\LL	.	.	.	.	.	.	.	.	.	.	.	(16ee\LL	.	(16ccc\LL	.
.	.	.	.	(16g/	.	16ee\)	.	.	.	.	.	.	.	.	.	.	.	16gg\)	.	16eee\)	.
8r	.	8r	.	16f/)	.	(16dd\	.	.	.	.	.	.	.	.	.	.	.	(16ff\	.	(16ddd\	.
.	.	.	.	16g/JJ	.	16ee\JJ)	.	.	.	.	.	.	.	.	.	.	.	16gg\JJ)	.	16eee\JJ)	.
=118	=118	=118	=118	=118	=118	=118	=118	=118	=118	=118	=118	=118	=118	=118	=118	=118	=118	=118	=118	=118	=118
!	!	!	!	!LO:TX:t=P:problem:mixed beam	!	!	!	!	!	!	!	!	!	!	!	!	!	!	!	!	!
8C/L	f	8g\L	f	8e/L	f	8cc\L	f	2ryy	2ryy	2r	.	.	2r	.	.	2ryy	2ryy	8ee\L	f	8ccc\L	f
8CC/	.	8g\	.	8ee/	.	8ccc\	.	.	.	.	.	.	.	.	.	.	.	8ee\	.	8ccc\	.
8C/J	.	8g\J	.	8ee/J	.	8ccc\J	.	.	.	.	.	.	.	.	.	.	.	8ee\J	.	8ccc\J	.
8r	.	8r	.	8r	.	8r	.	.	.	.	.	.	.	.	.	.	.	8r	.	8r	.
==	==	==	==	==	==	==	==	==	==	==	==	==	==	==	==	==	==	==	==	==	==
*-	*-	*-	*-	*-	*-	*-	*-	*-	*-	*-	*-	*-	*-	*-	*-	*-	*-	*-	*-	*-	*-
!!!system-decoration: [(s1,s2)][(s3,s4)][(s5,s6,s7,s8)][(s9,s10,s11)][(s12)]
!!!ENC: Andrzej Gręziak
!!!END: 2020-11-05
!!!RDF**kern: | = vertical stroke
